;FLAVOR:Marlin
;TIME:5571
;Filament used: 7.96437m
;Layer height: 0.28
;MINX:73.813
;MINY:48.992
;MINZ:0.28
;MAXX:161.187
;MAXY:186.008
;MAXZ:14.84
;Generated with Cura_SteamEngine 4.5.0
M140 S50
M105
M190 S50
M104 S200
M105
M109 S200
M82 ;absolute extrusion mode
; Ender 3 Custom Start G-code
G92 E0 ; Reset Extruder
G28 ; Home all axes
G1 Z2.0 F3000 ; Move Z Axis up little to prevent scratching of Heat Bed
G1 X0.1 Y20 Z0.3 F5000.0 ; Move to start position
G1 X0.1 Y200.0 Z0.3 F1500.0 E15 ; Draw the first line
G1 X0.4 Y200.0 Z0.3 F5000.0 ; Move to side a little
G1 X0.4 Y20 Z0.3 F1500.0 E30 ; Draw the second line
G92 E0 ; Reset Extruder
G1 Z2.0 F3000 ; Move Z Axis up little to prevent scratching of Heat Bed
G1 X5 Y20 Z0.3 F5000.0 ; Move over to prevent blob squish
G92 E0
G92 E0
G1 F2700 E-5
;LAYER_COUNT:53
;LAYER:0
M107
M204 S2000
M205 X20 Y20
G0 F3600 X76.386 Y65.364 Z0.28
M204 S1500
M205 X10 Y10
;TYPE:SKIRT
G1 F2700 E0
G1 F1200 X77.018 Y64.671 E0.04367
G1 X77.646 Y64.086 E0.08364
G1 X78.535 Y63.322 E0.13822
G1 X79.168 Y62.794 E0.1766
G1 X81.055 Y61.129 E0.29378
G1 X82.888 Y59.418 E0.41054
G1 X84.688 Y57.639 E0.52838
G1 X86.395 Y55.854 E0.64339
G1 X88.473 Y53.543 E0.78811
G1 X89.123 Y52.794 E0.83428
G1 X89.768 Y52.113 E0.87796
G1 X90.468 Y51.488 E0.92166
G1 X91.219 Y50.926 E0.96533
G1 X92.014 Y50.43 E1.00897
G1 X92.85 Y50.003 E1.05268
G1 X93.718 Y49.65 E1.09631
G1 X94.614 Y49.371 E1.14001
G1 X95.53 Y49.17 E1.18367
G1 X96.46 Y49.047 E1.22736
G1 X97.194 Y49.007 E1.26159
G1 X97.987 Y48.992 E1.29852
G1 X136.879 Y48.993 E3.10949
G1 X137.581 Y49.003 E3.14218
G1 X138.517 Y49.056 E3.18584
G1 X139.445 Y49.189 E3.22949
G1 X140.359 Y49.401 E3.27318
G1 X141.252 Y49.689 E3.31687
G1 X142.116 Y50.053 E3.36053
G1 X142.947 Y50.489 E3.40422
G1 X143.737 Y50.994 E3.44788
G1 X144.481 Y51.564 E3.49153
G1 X145.174 Y52.196 E3.5352
G1 X145.81 Y52.884 E3.57883
G1 X147.58 Y54.89 E3.7034
G1 X149.299 Y56.733 E3.82075
G1 X151.072 Y58.528 E3.93823
G1 X152.87 Y60.247 E4.05406
G1 X154.74 Y61.939 E4.17149
G1 X156.941 Y63.807 E4.30591
G1 X157.333 Y64.154 E4.33029
G1 X158.002 Y64.812 E4.37398
G1 X158.613 Y65.524 E4.41767
G1 X159.16 Y66.285 E4.46131
G1 X159.641 Y67.09 E4.50498
G1 X160.052 Y67.933 E4.54865
G1 X160.389 Y68.809 E4.59235
G1 X160.65 Y69.709 E4.63599
G1 X160.834 Y70.629 E4.67967
G1 X160.939 Y71.561 E4.72335
G1 X160.964 Y72.141 E4.75038
G1 X160.974 Y72.87 E4.78433
G1 X160.973 Y111.761 E6.59525
G1 X160.934 Y114.199 E6.70879
G1 X160.938 Y116.726 E6.82646
G1 X161.013 Y119.257 E6.94437
G1 X161.11 Y121.054 E7.02816
G1 X161.156 Y121.786 E7.06232
G1 X161.176 Y122.296 E7.08608
G1 X161.187 Y123.019 E7.11975
G1 X161.186 Y161.912 E8.93077
G1 X161.176 Y162.61 E8.96328
G1 X161.122 Y163.546 E9.00693
G1 X160.99 Y164.474 E9.05058
G1 X160.778 Y165.388 E9.09427
G1 X160.489 Y166.28 E9.13793
G1 X160.126 Y167.145 E9.18161
G1 X159.69 Y167.975 E9.22527
G1 X159.185 Y168.766 E9.26897
G1 X158.614 Y169.51 E9.31264
G1 X157.982 Y170.203 E9.35631
G1 X157.362 Y170.782 E9.39581
G1 X156.809 Y171.259 E9.42982
G1 X154.854 Y172.982 E9.55116
G1 X153.02 Y174.693 E9.66795
G1 X151.238 Y176.453 E9.78458
G1 X149.468 Y178.301 E9.90373
G1 X147.826 Y180.117 E10.01773
G1 X146.678 Y181.469 E10.10032
G1 X146.052 Y182.19 E10.14478
G1 X145.408 Y182.871 E10.18843
G1 X144.707 Y183.495 E10.23213
G1 X143.957 Y184.057 E10.27577
G1 X143.161 Y184.553 E10.31944
G1 X142.325 Y184.979 E10.36313
G1 X141.457 Y185.333 E10.40678
G1 X140.561 Y185.612 E10.45048
G1 X139.645 Y185.813 E10.49414
G1 X138.321 Y185.963 E10.55619
G1 X137.748 Y185.993 E10.58291
G1 X137.173 Y186.008 E10.60969
G1 X98.281 Y186.007 E12.42066
G1 X97.583 Y185.997 E12.45317
G1 X96.647 Y185.943 E12.49683
G1 X95.719 Y185.811 E12.54047
G1 X94.805 Y185.599 E12.58416
G1 X93.913 Y185.31 E12.62782
G1 X93.048 Y184.947 E12.6715
G1 X92.218 Y184.511 E12.71516
G1 X91.427 Y184.006 E12.75886
G1 X90.683 Y183.435 E12.80253
G1 X89.99 Y182.803 E12.8462
G1 X89.422 Y182.194 E12.88498
G1 X88.906 Y181.595 E12.92179
G1 X87.933 Y180.425 E12.99265
G1 X86.228 Y178.489 E13.11277
G1 X84.55 Y176.688 E13.2274
G1 X82.774 Y174.89 E13.34507
G1 X80.956 Y173.148 E13.46232
G1 X78.616 Y171.045 E13.60882
G1 X78.106 Y170.603 E13.64024
G1 X77.424 Y169.959 E13.68392
G1 X76.799 Y169.259 E13.72761
G1 X76.237 Y168.509 E13.77125
G1 X75.74 Y167.713 E13.81495
G1 X75.313 Y166.878 E13.85862
G1 X74.958 Y166.01 E13.90229
G1 X74.679 Y165.115 E13.94594
G1 X74.477 Y164.199 E13.98962
G1 X74.354 Y163.269 E14.0333
G1 X74.311 Y162.468 E14.07065
G1 X74.301 Y161.735 E14.10479
G1 X74.301 Y122.373 E15.93765
G1 X74.29 Y120.809 E16.01048
G1 X74.213 Y118.27 E16.12876
G1 X74.066 Y115.742 E16.24667
G1 X73.928 Y114.064 E16.32507
G1 X73.868 Y113.405 E16.35588
G1 X73.825 Y112.607 E16.39309
G1 X73.813 Y111.854 E16.42816
G1 X73.814 Y72.962 E18.23913
G1 X73.824 Y72.264 E18.27164
G1 X73.878 Y71.328 E18.3153
G1 X74.01 Y70.4 E18.35894
G1 X74.222 Y69.486 E18.40263
G1 X74.511 Y68.594 E18.44629
G1 X74.874 Y67.729 E18.48997
G1 X75.31 Y66.899 E18.53363
G1 X75.815 Y66.108 E18.57733
G1 X76.386 Y65.364 E18.621
M204 S2000
M205 X20 Y20
G0 F3600 X76.78 Y65.518
M204 S1500
M205 X10 Y10
G1 F1200 X77.41 Y64.846 E18.66389
G1 X77.907 Y64.389 E18.69533
G1 X78.791 Y63.63 E18.74958
G1 X79.423 Y63.103 E18.7879
G1 X81.31 Y61.439 E18.90505
G1 X83.178 Y59.695 E19.02405
G1 X84.957 Y57.935 E19.14057
G1 X86.714 Y56.098 E19.25894
G1 X88.765 Y53.818 E19.40174
G1 X89.426 Y53.056 E19.44871
G1 X90.059 Y52.388 E19.49156
G1 X90.747 Y51.777 E19.53441
G1 X91.486 Y51.228 E19.57728
G1 X92.27 Y50.745 E19.62016
G1 X93.093 Y50.332 E19.66303
G1 X93.949 Y49.992 E19.70592
G1 X94.831 Y49.728 E19.74879
G1 X95.732 Y49.541 E19.79164
G1 X96.646 Y49.433 E19.83449
G1 X97.202 Y49.406 E19.86041
G1 X97.987 Y49.392 E19.89697
G1 X136.873 Y49.393 E21.70767
G1 X137.575 Y49.403 E21.74036
G1 X138.494 Y49.456 E21.78322
G1 X139.405 Y49.589 E21.82609
G1 X140.301 Y49.8 E21.86896
G1 X141.176 Y50.088 E21.91185
G1 X142.022 Y50.451 E21.95472
G1 X142.833 Y50.886 E21.99757
G1 X143.604 Y51.39 E22.04046
G1 X144.328 Y51.958 E22.08331
G1 X145 Y52.588 E22.1262
G1 X145.547 Y53.191 E22.16411
G1 X147.288 Y55.164 E22.28664
G1 X149.004 Y57.005 E22.40383
G1 X150.776 Y58.798 E22.52121
G1 X152.626 Y60.567 E22.6404
G1 X154.462 Y62.228 E22.75568
G1 X156.922 Y64.322 E22.90611
G1 X157.065 Y64.451 E22.91508
G1 X157.721 Y65.097 E22.95795
G1 X158.319 Y65.797 E23.00082
G1 X158.854 Y66.547 E23.04372
G1 X159.321 Y67.34 E23.08657
G1 X159.718 Y68.171 E23.12945
G1 X160.042 Y69.033 E23.17233
G1 X160.289 Y69.919 E23.21516
G1 X160.459 Y70.824 E23.25804
G1 X160.564 Y72.148 E23.31988
G1 X160.574 Y72.87 E23.35351
G1 X160.573 Y111.755 E25.16415
G1 X160.534 Y114.19 E25.27755
G1 X160.538 Y116.739 E25.39625
G1 X160.612 Y119.25 E25.51322
G1 X160.712 Y121.097 E25.59935
G1 X160.757 Y121.811 E25.63266
G1 X160.777 Y122.302 E25.65554
G1 X160.787 Y123.019 E25.68893
G1 X160.786 Y161.906 E27.49968
G1 X160.776 Y162.604 E27.53218
G1 X160.723 Y163.523 E27.57504
G1 X160.59 Y164.434 E27.61791
G1 X160.379 Y165.33 E27.66078
G1 X160.091 Y166.204 E27.70363
G1 X159.728 Y167.051 E27.74654
G1 X159.293 Y167.862 E27.78939
G1 X158.789 Y168.632 E27.83224
G1 X158.22 Y169.356 E27.87512
G1 X157.59 Y170.028 E27.91801
G1 X157.1 Y170.479 E27.94902
G1 X156.566 Y170.939 E27.98184
G1 X154.58 Y172.69 E28.10513
G1 X152.749 Y174.398 E28.22172
G1 X150.968 Y176.156 E28.33825
G1 X149.183 Y178.021 E28.45846
G1 X147.508 Y179.873 E28.57473
G1 X146.376 Y181.206 E28.65616
G1 X145.75 Y181.927 E28.70062
G1 X145.117 Y182.596 E28.74351
G1 X144.428 Y183.207 E28.78639
G1 X143.689 Y183.755 E28.82923
G1 X142.905 Y184.238 E28.87211
G1 X142.082 Y184.651 E28.91499
G1 X141.226 Y184.99 E28.95786
G1 X140.344 Y185.255 E29.00074
G1 X139.443 Y185.441 E29.04358
G1 X138.3 Y185.564 E29.09711
G1 X137.727 Y185.594 E29.12383
G1 X137.173 Y185.608 E29.14963
G1 X98.287 Y185.607 E30.96033
G1 X97.589 Y185.597 E30.99283
G1 X96.67 Y185.544 E31.0357
G1 X95.759 Y185.411 E31.07856
G1 X94.863 Y185.2 E31.12143
G1 X93.989 Y184.912 E31.16428
G1 X93.142 Y184.549 E31.20719
G1 X92.331 Y184.114 E31.25004
G1 X91.561 Y183.61 E31.29289
G1 X90.837 Y183.041 E31.33577
G1 X90.165 Y182.411 E31.37866
G1 X89.724 Y181.933 E31.40894
G1 X89.214 Y181.34 E31.44536
G1 X88.227 Y180.153 E31.51725
G1 X86.553 Y178.253 E31.63516
G1 X84.81 Y176.382 E31.75423
G1 X83.052 Y174.603 E31.87069
G1 X81.25 Y172.875 E31.98694
G1 X78.831 Y170.702 E32.13836
G1 X78.368 Y170.3 E32.16691
G1 X77.699 Y169.668 E32.20976
G1 X77.087 Y168.979 E32.25267
G1 X76.538 Y168.241 E32.2955
G1 X76.055 Y167.457 E32.33838
G1 X75.641 Y166.635 E32.38124
G1 X75.301 Y165.779 E32.42412
G1 X75.036 Y164.897 E32.46701
G1 X74.848 Y163.996 E32.50987
G1 X74.74 Y163.082 E32.55272
G1 X74.711 Y162.462 E32.58162
G1 X74.701 Y161.735 E32.61548
G1 X74.701 Y122.37 E34.44848
G1 X74.69 Y120.794 E34.52186
G1 X74.614 Y118.271 E34.6394
G1 X74.465 Y115.726 E34.75811
G1 X74.267 Y113.369 E34.86825
G1 X74.225 Y112.599 E34.90415
G1 X74.213 Y111.854 E34.93885
G1 X74.214 Y72.968 E36.74954
G1 X74.224 Y72.27 E36.78205
G1 X74.277 Y71.351 E36.82491
G1 X74.41 Y70.44 E36.86778
G1 X74.621 Y69.544 E36.91065
G1 X74.909 Y68.67 E36.95349
G1 X75.272 Y67.823 E36.9964
G1 X75.707 Y67.012 E37.03926
G1 X76.211 Y66.242 E37.08211
G1 X76.78 Y65.518 E37.12499
M204 S2000
M205 X20 Y20
G0 F3600 X77.174 Y65.674
M204 S1500
M205 X10 Y10
G1 F1200 X77.801 Y65.024 E37.16704
G1 X78.168 Y64.692 E37.19008
G1 X79.047 Y63.937 E37.24404
G1 X79.68 Y63.409 E37.28242
G1 X81.601 Y61.715 E37.40168
G1 X83.431 Y60.006 E37.51828
G1 X85.262 Y58.196 E37.63816
G1 X86.987 Y56.393 E37.75435
G1 X89.081 Y54.064 E37.90019
G1 X89.728 Y53.318 E37.94617
G1 X90.349 Y52.663 E37.9882
G1 X91.026 Y52.066 E38.03023
G1 X91.754 Y51.53 E38.07232
G1 X92.525 Y51.061 E38.11435
G1 X93.336 Y50.662 E38.15643
G1 X94.178 Y50.337 E38.19846
G1 X95.046 Y50.087 E38.24052
G1 X95.932 Y49.915 E38.28255
G1 X97.211 Y49.806 E38.34232
G1 X97.987 Y49.792 E38.37846
G1 X136.867 Y49.793 E40.18887
G1 X137.569 Y49.803 E40.22156
G1 X138.471 Y49.856 E40.26364
G1 X139.364 Y49.988 E40.30567
G1 X140.242 Y50.199 E40.34772
G1 X141.098 Y50.487 E40.38977
G1 X141.926 Y50.849 E40.43185
G1 X142.718 Y51.283 E40.4739
G1 X143.468 Y51.786 E40.51595
G1 X144.171 Y52.352 E40.55798
G1 X144.821 Y52.979 E40.60003
G1 X145.21 Y53.413 E40.62717
G1 X146.995 Y55.436 E40.7528
G1 X148.711 Y57.276 E40.86995
G1 X150.516 Y59.103 E40.98954
G1 X152.327 Y60.835 E41.10623
G1 X154.219 Y62.546 E41.22501
G1 X156.654 Y64.619 E41.37392
G1 X156.797 Y64.748 E41.38288
G1 X157.44 Y65.382 E41.42493
G1 X158.025 Y66.071 E41.46702
G1 X158.546 Y66.808 E41.50905
G1 X159 Y67.589 E41.55111
G1 X159.384 Y68.407 E41.59319
G1 X159.693 Y69.255 E41.63521
G1 X159.926 Y70.128 E41.67729
G1 X160.081 Y71.017 E41.71931
G1 X160.164 Y72.155 E41.77244
G1 X160.174 Y72.87 E41.80574
G1 X160.173 Y111.749 E43.6161
G1 X160.134 Y114.18 E43.72932
G1 X160.138 Y116.716 E43.8474
G1 X160.215 Y119.324 E43.9689
G1 X160.308 Y121.044 E44.0491
G1 X160.358 Y121.836 E44.08606
G1 X160.377 Y122.309 E44.1081
G1 X160.387 Y123.019 E44.14116
G1 X160.386 Y161.9 E45.95162
G1 X160.376 Y162.598 E45.98413
G1 X160.323 Y163.5 E46.0262
G1 X160.191 Y164.393 E46.06824
G1 X159.98 Y165.271 E46.11028
G1 X159.692 Y166.127 E46.15234
G1 X159.33 Y166.954 E46.19437
G1 X158.895 Y167.746 E46.23645
G1 X158.393 Y168.497 E46.27851
G1 X157.826 Y169.2 E46.32057
G1 X157.199 Y169.85 E46.36262
G1 X156.839 Y170.176 E46.38524
G1 X156.339 Y170.607 E46.41597
G1 X154.326 Y172.381 E46.54091
G1 X152.442 Y174.138 E46.66087
G1 X150.681 Y175.878 E46.77614
G1 X148.897 Y177.741 E46.89625
G1 X147.205 Y179.611 E47.01368
G1 X146.074 Y180.944 E47.09508
G1 X145.448 Y181.665 E47.13954
G1 X144.826 Y182.32 E47.1816
G1 X144.149 Y182.918 E47.22366
G1 X143.422 Y183.453 E47.26569
G1 X142.65 Y183.922 E47.30776
G1 X141.84 Y184.321 E47.3498
G1 X140.997 Y184.646 E47.39187
G1 X140.129 Y184.896 E47.43393
G1 X139.243 Y185.068 E47.47596
G1 X138.279 Y185.164 E47.52107
G1 X137.706 Y185.194 E47.54778
G1 X137.173 Y185.208 E47.57261
G1 X98.293 Y185.207 E49.38303
G1 X97.595 Y185.197 E49.41553
G1 X96.693 Y185.144 E49.45761
G1 X95.8 Y185.012 E49.49964
G1 X94.922 Y184.801 E49.54169
G1 X94.066 Y184.513 E49.58374
G1 X93.239 Y184.151 E49.62578
G1 X92.447 Y183.716 E49.66785
G1 X91.696 Y183.214 E49.70992
G1 X90.993 Y182.647 E49.75197
G1 X90.343 Y182.02 E49.79402
G1 X90.027 Y181.671 E49.81595
G1 X89.521 Y181.084 E49.85203
G1 X88.516 Y179.876 E49.9252
G1 X86.848 Y177.982 E50.04272
G1 X85.105 Y176.111 E50.16179
G1 X83.349 Y174.333 E50.27815
G1 X81.496 Y172.557 E50.39767
G1 X79.137 Y170.437 E50.54535
G1 X78.63 Y169.998 E50.57658
G1 X77.974 Y169.377 E50.61864
G1 X77.376 Y168.7 E50.6607
G1 X76.84 Y167.973 E50.70276
G1 X76.371 Y167.202 E50.74478
G1 X75.971 Y166.392 E50.78685
G1 X75.645 Y165.55 E50.82889
G1 X75.394 Y164.682 E50.87097
G1 X75.222 Y163.796 E50.91299
G1 X75.111 Y162.455 E50.97565
G1 X75.101 Y161.735 E51.00918
G1 X75.101 Y122.367 E52.84232
G1 X75.09 Y120.78 E52.91622
G1 X75.014 Y118.269 E53.03319
G1 X74.862 Y115.675 E53.15419
G1 X74.717 Y113.901 E53.23707
G1 X74.665 Y113.333 E53.26363
G1 X74.625 Y112.592 E53.29818
G1 X74.613 Y111.854 E53.33255
G1 X74.614 Y72.974 E55.14296
G1 X74.624 Y72.276 E55.17547
G1 X74.677 Y71.374 E55.21754
G1 X74.809 Y70.481 E55.25958
G1 X75.02 Y69.603 E55.30162
G1 X75.308 Y68.747 E55.34368
G1 X75.67 Y67.92 E55.38571
G1 X76.105 Y67.128 E55.42779
G1 X76.607 Y66.377 E55.46985
G1 X77.174 Y65.674 E55.51191
M204 S2000
M205 X20 Y20
G1 F2700 E50.51191
;MESH:7segment-body.stl
G0 F3600 X87.948 Y76.333
G0 X88.013 Y74.125
G0 X96.611 Y76.304
G0 X96.676 Y84.966
G0 X100.408 Y88.658
G0 X100.466 Y109.292
G0 X121.324 Y109.347
G0 X125.099 Y113.082
G0 X133.652 Y113.146
G0 X138.019 Y117.479
G0 X133.901 Y121.788
G0 X138.4 Y126.238
G0 X136.946 Y125.644
G0 X137.291 Y159.133
G0 X142.93 Y164.968
M204 S1000
M205 X10 Y10
;TYPE:WALL-INNER
G1 F2700 E55.51191
G1 F1800 X148.247 Y161.423 E55.80947
G1 X148.247 Y123.497 E57.57547
G1 X147.933 Y123.291 E57.59295
G1 X142.838 Y119.894 E57.87809
G1 X137.347 Y125.509 E58.24379
G1 X137.138 Y125.723 E58.25772
G1 X137.127 Y159.201 E59.8166
G1 X142.93 Y164.968 E60.19755
M204 S2000
M205 X20 Y20
G0 F3600 X142.98 Y164.454
M204 S1000
M205 X10 Y10
;TYPE:WALL-OUTER
G1 F1800 X147.847 Y161.209 E60.46993
G1 X147.847 Y123.713 E62.2159
G1 X147.713 Y123.625 E62.22337
G1 X142.892 Y120.411 E62.49317
G1 X137.633 Y125.789 E62.84342
G1 X137.538 Y125.886 E62.84974
G1 X137.527 Y159.035 E64.3933
G1 X142.98 Y164.454 E64.75127
M204 S2000
M205 X20 Y20
G1 F2700 E59.75127
G0 F3600 X142.768 Y164.665
G0 X137.291 Y159.133
G0 X137.301 Y125.789
G0 X142.812 Y119.649
G0 X143.008 Y121.516
G0 X141.146 Y111.652
G0 X138.175 Y108.613
G0 X138.135 Y95.694
G0 X134.355 Y75.662
G0 X134.339 Y75.577
G0 X133.626 Y71.791
G0 X134.237 Y73.244
G0 X134.156 Y73.052
M204 S1000
M205 X10 Y10
;TYPE:WALL-INNER
G1 F2700 E64.75127
G1 F1800 X139.872 Y67.2 E65.13218
G1 X136.393 Y61.932 E65.42615
G1 X98.468 Y61.932 E67.19209
G1 X94.918 Y67.255 E67.49002
G1 X100.625 Y73.052 E67.86881
G1 X134.156 Y73.052 E69.43015
M204 S2000
M205 X20 Y20
G0 F3600 X133.988 Y72.652
M204 S1000
M205 X10 Y10
;TYPE:WALL-OUTER
G1 F1800 X139.36 Y67.151 E69.78818
G1 X136.178 Y62.332 E70.05708
G1 X98.682 Y62.332 E71.80305
G1 X95.431 Y67.206 E72.07586
G1 X100.793 Y72.652 E72.43173
G1 X133.988 Y72.652 E73.97743
M204 S2000
M205 X20 Y20
G0 F3600 X134.158 Y73.057
G1 F2700 E68.97743
G0 F3600 X134.237 Y73.244
G0 X133.626 Y71.791
G0 X138.188 Y76.284
G0 X136.734 Y75.691
G0 X137.078 Y109.072
G0 X142.68 Y114.637
G0 X143.112 Y114.557
M204 S1000
M205 X10 Y10
;TYPE:WALL-INNER
G1 F2700 E73.97743
G1 F1800 X148.034 Y111.274 E74.25292
G1 X148.034 Y73.353 E76.01868
G1 X147.725 Y73.145 E76.03603
G1 X142.737 Y69.82 E76.31516
G1 X136.926 Y75.77 E76.70243
G1 X136.914 Y109.141 E78.25633
G1 X137.14 Y109.363 E78.27108
G1 X142.658 Y114.855 E78.63359
G1 X143.112 Y114.557 E78.65888
M204 S2000
M205 X20 Y20
G0 F3600 X142.71 Y114.342
M204 S1000
M205 X10 Y10
;TYPE:WALL-OUTER
G1 F1800 X142.891 Y114.223 E78.66897
G1 X147.634 Y111.06 E78.93443
G1 X147.634 Y73.566 E80.6803
G1 X147.502 Y73.477 E80.68772
G1 X142.791 Y70.337 E80.95134
G1 X137.326 Y75.933 E81.31556
G1 X137.314 Y108.973 E82.85404
