;FLAVOR:Marlin
;TIME:1287
;Filament used: 0.822623m
;Layer height: 0.2
;MINX:77.86
;MINY:54.28
;MINZ:0.2
;MAXX:157.14
;MAXY:180.72
;MAXZ:2.2
;Generated with Cura_SteamEngine 4.5.0
M140 S50
M105
M190 S50
M104 S200
M105
M109 S200
M82 ;absolute extrusion mode
; Ender 3 Custom Start G-code
G92 E0 ; Reset Extruder
G28 ; Home all axes
G1 Z2.0 F3000 ; Move Z Axis up little to prevent scratching of Heat Bed
G1 X0.1 Y20 Z0.3 F5000.0 ; Move to start position
G1 X0.1 Y200.0 Z0.3 F1500.0 E15 ; Draw the first line
G1 X0.4 Y200.0 Z0.3 F5000.0 ; Move to side a little
G1 X0.4 Y20 Z0.3 F1500.0 E30 ; Draw the second line
G92 E0 ; Reset Extruder
G1 Z2.0 F3000 ; Move Z Axis up little to prevent scratching of Heat Bed
G1 X5 Y20 Z0.3 F5000.0 ; Move over to prevent blob squish
G92 E0
G92 E0
G1 F2700 E-5
;LAYER_COUNT:11
;LAYER:0
M107
G0 F6000 X80.433 Y68.909 Z0.2
;TYPE:SKIRT
G1 F2700 E0
G1 F1200 X81.065 Y68.216 E0.03119
G1 X81.689 Y67.635 E0.05955
G1 X82.203 Y67.192 E0.08212
G1 X84.215 Y65.418 E0.17134
G1 X86.049 Y63.707 E0.25476
G1 X87.85 Y61.928 E0.33896
G1 X89.573 Y60.127 E0.42186
G1 X91.551 Y57.933 E0.52011
G1 X92.208 Y57.264 E0.5513
G1 X92.92 Y56.653 E0.5825
G1 X93.681 Y56.105 E0.61369
G1 X94.486 Y55.624 E0.64488
G1 X95.329 Y55.213 E0.67607
G1 X96.204 Y54.875 E0.70727
G1 X97.105 Y54.614 E0.73847
G1 X98.024 Y54.43 E0.76965
G1 X99.368 Y54.304 E0.81454
G1 X99.929 Y54.286 E0.83321
G1 X100.282 Y54.28 E0.84495
G1 X134.591 Y54.281 E1.98608
G1 X135.292 Y54.291 E2.00939
G1 X136.228 Y54.344 E2.04058
G1 X137.157 Y54.477 E2.07179
G1 X138.07 Y54.689 E2.10296
G1 X138.963 Y54.977 E2.13417
G1 X139.827 Y55.341 E2.16535
G1 X140.658 Y55.777 E2.19657
G1 X141.448 Y56.282 E2.22775
G1 X142.192 Y56.852 E2.25892
G1 X142.885 Y57.484 E2.29012
G1 X143.274 Y57.89 E2.30882
G1 X144.108 Y58.81 E2.35012
G1 X144.348 Y59.083 E2.36221
G1 X146.053 Y60.915 E2.44545
G1 X147.822 Y62.71 E2.52927
G1 X149.633 Y64.446 E2.61271
G1 X151.488 Y66.127 E2.69597
G1 X152.124 Y66.669 E2.72377
G1 X153.178 Y67.595 E2.77043
G1 X153.856 Y68.244 E2.80165
G1 X154.476 Y68.948 E2.83285
G1 X155.033 Y69.702 E2.86403
G1 X155.525 Y70.5 E2.89521
G1 X155.946 Y71.338 E2.9264
G1 X156.295 Y72.209 E2.95761
G1 X156.568 Y73.106 E2.98879
G1 X156.764 Y74.023 E3.01998
G1 X156.881 Y74.954 E3.05119
G1 X156.912 Y75.491 E3.06908
G1 X156.931 Y76.058 E3.08795
G1 X156.937 Y76.426 E3.10019
G1 X156.936 Y110.729 E4.24111
G1 X156.922 Y111.595 E4.26992
G1 X156.841 Y114.392 E4.36299
G1 X156.841 Y116.905 E4.44657
G1 X156.913 Y119.465 E4.53175
G1 X157.11 Y122.844 E4.64433
G1 X157.128 Y123.31 E4.65984
G1 X157.14 Y124.07 E4.68512
G1 X157.139 Y158.373 E5.82604
G1 X157.129 Y159.071 E5.84926
G1 X157.075 Y160.007 E5.88044
G1 X156.943 Y160.935 E5.91162
G1 X156.731 Y161.849 E5.94282
G1 X156.442 Y162.741 E5.97401
G1 X156.079 Y163.606 E6.00521
G1 X155.643 Y164.436 E6.03639
G1 X155.138 Y165.227 E6.06761
G1 X154.567 Y165.971 E6.0988
G1 X153.935 Y166.664 E6.13
G1 X153.596 Y166.992 E6.14569
G1 X153.033 Y167.507 E6.17106
G1 X151.787 Y168.605 E6.2263
G1 X149.938 Y170.329 E6.31038
G1 X148.145 Y172.102 E6.39425
G1 X146.438 Y173.887 E6.4764
G1 X144.35 Y176.209 E6.58026
G1 X143.733 Y176.92 E6.61157
G1 X143.088 Y177.601 E6.64277
G1 X142.388 Y178.225 E6.67396
G1 X141.638 Y178.788 E6.70515
G1 X140.842 Y179.284 E6.73634
G1 X140.007 Y179.71 E6.76752
G1 X139.138 Y180.064 E6.79873
G1 X138.242 Y180.343 E6.82994
G1 X137.326 Y180.544 E6.86113
G1 X136.397 Y180.667 E6.8923
G1 X135.62 Y180.708 E6.91818
G1 X134.86 Y180.72 E6.94346
G1 X100.561 Y180.719 E8.08425
G1 X99.863 Y180.709 E8.10747
G1 X98.927 Y180.655 E8.13865
G1 X97.999 Y180.523 E8.16983
G1 X97.085 Y180.311 E8.20104
G1 X96.193 Y180.022 E8.23222
G1 X95.328 Y179.659 E8.26342
G1 X94.498 Y179.223 E8.29461
G1 X93.707 Y178.718 E8.32582
G1 X92.963 Y178.147 E8.35701
G1 X92.27 Y177.515 E8.38821
G1 X91.686 Y176.888 E8.41671
G1 X90.922 Y176.001 E8.45564
G1 X89.181 Y174.027 E8.54319
G1 X87.463 Y172.186 E8.62694
G1 X85.691 Y170.392 E8.71081
G1 X83.898 Y168.677 E8.79333
G1 X82.562 Y167.474 E8.85312
G1 X81.886 Y166.852 E8.88368
G1 X81.223 Y166.188 E8.91489
G1 X80.62 Y165.47 E8.94607
G1 X80.08 Y164.703 E8.97727
G1 X79.607 Y163.893 E9.00847
G1 X79.205 Y163.046 E9.03965
G1 X78.876 Y162.168 E9.07084
G1 X78.624 Y161.264 E9.10205
G1 X78.449 Y160.343 E9.13323
G1 X78.336 Y158.953 E9.17962
G1 X78.324 Y158.195 E9.20483
G1 X78.325 Y123.898 E10.34555
G1 X78.344 Y122.557 E10.39016
G1 X78.344 Y119.984 E10.47574
G1 X78.272 Y117.426 E10.56085
G1 X78.132 Y114.957 E10.6431
G1 X77.966 Y112.927 E10.71085
G1 X77.916 Y112.378 E10.72918
G1 X77.872 Y111.584 E10.75563
G1 X77.86 Y110.846 E10.78018
G1 X77.861 Y76.507 E11.9223
G1 X77.871 Y75.809 E11.94552
G1 X77.925 Y74.873 E11.9767
G1 X78.057 Y73.945 E12.00788
G1 X78.269 Y73.031 E12.03908
G1 X78.558 Y72.139 E12.07027
G1 X78.921 Y71.274 E12.10147
G1 X79.357 Y70.444 E12.13265
G1 X79.862 Y69.653 E12.16387
G1 X80.433 Y68.909 E12.19506
G0 F6000 X80.827 Y69.063
G1 F1200 X81.457 Y68.391 E12.2257
G1 X81.95 Y67.938 E12.24796
G1 X82.49 Y67.473 E12.27167
G1 X84.489 Y65.71 E12.36032
G1 X86.32 Y64.002 E12.4436
G1 X88.12 Y62.224 E12.52775
G1 X89.876 Y60.389 E12.61223
G1 X91.848 Y58.201 E12.71019
G1 X92.493 Y57.544 E12.74082
G1 X93.193 Y56.946 E12.77144
G1 X93.943 Y56.411 E12.80208
G1 X94.736 Y55.944 E12.83269
G1 X95.566 Y55.546 E12.8633
G1 X96.428 Y55.222 E12.89393
G1 X97.315 Y54.975 E12.92456
G1 X98.22 Y54.805 E12.95518
G1 X99.381 Y54.703 E12.99395
G1 X99.942 Y54.685 E13.01262
G1 X100.282 Y54.68 E13.02392
G1 X134.585 Y54.681 E14.16485
G1 X135.286 Y54.691 E14.18816
G1 X136.205 Y54.744 E14.21878
G1 X137.116 Y54.877 E14.2494
G1 X138.012 Y55.088 E14.28002
G1 X138.887 Y55.376 E14.31066
G1 X139.733 Y55.739 E14.34128
G1 X140.544 Y56.174 E14.37189
G1 X141.315 Y56.678 E14.40252
G1 X142.039 Y57.247 E14.43315
G1 X142.978 Y58.159 E14.47669
G1 X143.808 Y59.074 E14.51778
G1 X144.055 Y59.356 E14.53024
G1 X145.757 Y61.185 E14.61334
G1 X147.561 Y63.014 E14.69879
G1 X149.37 Y64.749 E14.78215
G1 X151.211 Y66.416 E14.86476
G1 X151.86 Y66.97 E14.89314
G1 X152.914 Y67.896 E14.9398
G1 X153.579 Y68.533 E14.97043
G1 X154.186 Y69.225 E15.00105
G1 X154.73 Y69.968 E15.03167
G1 X155.208 Y70.755 E15.0623
G1 X155.616 Y71.58 E15.09291
G1 X155.951 Y72.438 E15.12355
G1 X156.21 Y73.321 E15.15415
G1 X156.391 Y74.224 E15.18478
G1 X156.512 Y75.504 E15.22755
G1 X156.531 Y76.071 E15.24642
G1 X156.537 Y76.426 E15.25822
G1 X156.536 Y110.724 E16.39898
G1 X156.523 Y111.584 E16.42759
G1 X156.441 Y114.416 E16.52182
G1 X156.441 Y116.916 E16.60497
G1 X156.513 Y119.465 E16.68978
G1 X156.625 Y121.44 E16.75558
G1 X156.711 Y122.868 E16.80316
G1 X156.728 Y123.317 E16.8181
G1 X156.74 Y124.07 E16.84315
G1 X156.739 Y158.367 E17.98388
G1 X156.729 Y159.065 E18.00709
G1 X156.676 Y159.984 E18.03771
G1 X156.543 Y160.895 E18.06833
G1 X156.332 Y161.791 E18.09895
G1 X156.044 Y162.665 E18.12955
G1 X155.681 Y163.512 E18.1602
G1 X155.246 Y164.323 E18.19081
G1 X154.742 Y165.093 E18.22142
G1 X154.173 Y165.817 E18.25205
G1 X153.324 Y166.698 E18.29274
G1 X152.769 Y167.207 E18.31779
G1 X151.496 Y168.328 E18.37421
G1 X149.667 Y170.035 E18.45742
G1 X147.882 Y171.799 E18.54089
G1 X146.119 Y173.643 E18.62574
G1 X144.087 Y175.902 E18.7268
G1 X143.431 Y176.658 E18.76009
G1 X142.798 Y177.326 E18.7907
G1 X142.109 Y177.937 E18.82133
G1 X141.37 Y178.486 E18.85195
G1 X140.586 Y178.969 E18.88257
G1 X139.763 Y179.382 E18.9132
G1 X138.907 Y179.722 E18.94383
G1 X138.025 Y179.986 E18.97446
G1 X137.124 Y180.173 E19.00506
G1 X136.21 Y180.281 E19.03567
G1 X135.613 Y180.308 E19.05555
G1 X134.86 Y180.32 E19.0806
G1 X100.567 Y180.319 E20.22119
G1 X99.869 Y180.309 E20.2444
G1 X98.95 Y180.256 E20.27502
G1 X98.039 Y180.123 E20.30564
G1 X97.143 Y179.912 E20.33626
G1 X96.269 Y179.624 E20.36687
G1 X95.422 Y179.261 E20.39752
G1 X94.611 Y178.826 E20.42812
G1 X93.841 Y178.322 E20.45873
G1 X93.117 Y177.753 E20.48936
G1 X92.445 Y177.123 E20.52
G1 X91.989 Y176.627 E20.54241
G1 X91.203 Y175.714 E20.58248
G1 X89.471 Y173.751 E20.66955
G1 X87.758 Y171.914 E20.75309
G1 X85.987 Y170.122 E20.83689
G1 X84.16 Y168.375 E20.92096
G1 X82.833 Y167.179 E20.98038
G1 X82.157 Y166.557 E21.01093
G1 X81.507 Y165.905 E21.04155
G1 X80.916 Y165.199 E21.07218
G1 X80.389 Y164.444 E21.1028
G1 X79.929 Y163.647 E21.13341
G1 X79.54 Y162.812 E21.16404
G1 X79.225 Y161.947 E21.19466
G1 X78.987 Y161.058 E21.22527
G1 X78.826 Y160.151 E21.25591
G1 X78.736 Y158.946 E21.2961
G1 X78.724 Y158.195 E21.32108
G1 X78.725 Y123.904 E22.46161
G1 X78.744 Y122.563 E22.50621
G1 X78.744 Y119.973 E22.59236
G1 X78.672 Y117.428 E22.67704
G1 X78.529 Y114.902 E22.76119
G1 X78.365 Y112.895 E22.82816
G1 X78.314 Y112.341 E22.84667
G1 X78.272 Y111.576 E22.87215
G1 X78.26 Y110.846 E22.89643
G1 X78.261 Y76.513 E24.03835
G1 X78.271 Y75.815 E24.06157
G1 X78.324 Y74.896 E24.09219
G1 X78.457 Y73.985 E24.12281
G1 X78.668 Y73.089 E24.15342
G1 X78.956 Y72.215 E24.18403
G1 X79.319 Y71.368 E24.21468
G1 X79.754 Y70.557 E24.24529
G1 X80.258 Y69.787 E24.2759
G1 X80.827 Y69.063 E24.30653
G0 F6000 X81.221 Y69.219
G1 F1200 X81.848 Y68.569 E24.33656
G1 X82.211 Y68.241 E24.35284
G1 X82.733 Y67.791 E24.37576
G1 X84.761 Y66.003 E24.46568
G1 X86.609 Y64.278 E24.54976
G1 X88.407 Y62.503 E24.6338
G1 X90.147 Y60.684 E24.71752
G1 X92.145 Y58.468 E24.81676
G1 X92.779 Y57.825 E24.84679
G1 X93.467 Y57.24 E24.87683
G1 X94.204 Y56.719 E24.90685
G1 X94.985 Y56.264 E24.93691
G1 X95.802 Y55.881 E24.96692
G1 X96.651 Y55.571 E24.99698
G1 X97.523 Y55.338 E25.027
G1 X98.413 Y55.182 E25.05706
G1 X99.394 Y55.103 E25.08979
G1 X99.955 Y55.085 E25.10846
G1 X100.282 Y55.08 E25.11934
G1 X134.579 Y55.081 E26.26006
G1 X135.28 Y55.091 E26.28338
G1 X136.182 Y55.144 E26.31343
G1 X137.075 Y55.276 E26.34345
G1 X137.954 Y55.487 E26.37352
G1 X138.81 Y55.775 E26.40356
G1 X139.637 Y56.137 E26.43358
G1 X140.429 Y56.571 E26.46362
G1 X141.179 Y57.074 E26.49366
G1 X141.882 Y57.641 E26.5237
G1 X142.682 Y58.428 E26.56102
G1 X143.508 Y59.338 E26.6019
G1 X143.762 Y59.627 E26.6147
G1 X145.48 Y61.474 E26.69859
G1 X147.282 Y63.301 E26.78394
G1 X149.072 Y65.017 E26.86642
G1 X150.967 Y66.734 E26.95147
G1 X151.596 Y67.27 E26.97896
G1 X152.65 Y68.196 E27.02562
G1 X153.302 Y68.822 E27.05568
G1 X153.895 Y69.502 E27.08569
G1 X154.426 Y70.233 E27.11574
G1 X154.89 Y71.008 E27.14579
G1 X155.284 Y71.82 E27.1758
G1 X155.605 Y72.665 E27.20587
G1 X155.849 Y73.534 E27.23589
G1 X156.016 Y74.421 E27.26591
G1 X156.112 Y75.517 E27.3025
G1 X156.131 Y76.084 E27.32137
G1 X156.137 Y76.426 E27.33275
G1 X156.136 Y110.718 E28.4733
G1 X156.123 Y111.572 E28.50171
G1 X156.041 Y114.404 E28.59594
G1 X156.041 Y116.927 E28.67986
G1 X156.113 Y119.462 E28.76421
G1 X156.226 Y121.464 E28.8309
G1 X156.312 Y122.892 E28.87848
G1 X156.328 Y123.324 E28.89286
G1 X156.34 Y124.07 E28.91768
G1 X156.339 Y158.361 E30.0582
G1 X156.329 Y159.059 E30.08142
G1 X156.276 Y159.961 E30.11147
G1 X156.144 Y160.854 E30.14149
G1 X155.933 Y161.732 E30.17153
G1 X155.645 Y162.588 E30.20157
G1 X155.283 Y163.415 E30.23159
G1 X154.848 Y164.207 E30.26165
G1 X154.346 Y164.958 E30.29169
G1 X153.779 Y165.661 E30.32173
G1 X153.053 Y166.404 E30.35628
G1 X152.504 Y166.907 E30.38105
G1 X151.26 Y168.003 E30.43619
G1 X149.379 Y169.758 E30.52175
G1 X147.571 Y171.545 E30.6063
G1 X145.846 Y173.348 E30.6893
G1 X143.771 Y175.657 E30.79255
G1 X143.129 Y176.396 E30.82511
G1 X142.507 Y177.051 E30.85515
G1 X141.83 Y177.648 E30.88517
G1 X141.103 Y178.184 E30.91521
G1 X140.331 Y178.653 E30.94526
G1 X139.521 Y179.052 E30.97529
G1 X138.678 Y179.377 E31.00534
G1 X137.81 Y179.627 E31.03538
G1 X136.924 Y179.799 E31.0654
G1 X135.606 Y179.908 E31.10939
G1 X134.86 Y179.92 E31.1342
G1 X100.573 Y179.919 E32.27459
G1 X99.875 Y179.909 E32.29781
G1 X98.973 Y179.856 E32.32786
G1 X98.08 Y179.724 E32.35789
G1 X97.202 Y179.513 E32.38792
G1 X96.346 Y179.225 E32.41796
G1 X95.519 Y178.863 E32.44799
G1 X94.727 Y178.428 E32.47804
G1 X93.976 Y177.926 E32.50809
G1 X93.273 Y177.359 E32.53812
G1 X92.623 Y176.732 E32.56816
G1 X92.292 Y176.366 E32.58458
G1 X91.521 Y175.47 E32.62389
G1 X89.785 Y173.502 E32.71117
G1 X88.035 Y171.626 E32.7965
G1 X86.247 Y169.817 E32.8811
G1 X84.439 Y168.088 E32.96431
G1 X83.104 Y166.885 E33.02408
G1 X82.428 Y166.263 E33.05463
G1 X81.791 Y165.623 E33.08466
G1 X81.213 Y164.929 E33.1147
G1 X80.699 Y164.186 E33.14475
G1 X80.253 Y163.401 E33.17478
G1 X79.877 Y162.58 E33.20482
G1 X79.576 Y161.728 E33.23487
G1 X79.352 Y160.853 E33.26491
G1 X79.205 Y159.962 E33.29495
G1 X79.136 Y158.938 E33.32908
G1 X79.124 Y158.195 E33.3538
G1 X79.125 Y123.91 E34.49412
G1 X79.144 Y122.569 E34.53873
G1 X79.144 Y119.962 E34.62544
G1 X79.072 Y117.428 E34.70975
G1 X78.926 Y114.846 E34.79577
G1 X78.772 Y112.961 E34.85867
G1 X78.712 Y112.305 E34.88058
G1 X78.672 Y111.568 E34.90513
G1 X78.66 Y110.846 E34.92915
G1 X78.661 Y76.519 E36.07087
G1 X78.671 Y75.821 E36.09409
G1 X78.724 Y74.919 E36.12414
G1 X78.856 Y74.026 E36.15416
G1 X79.067 Y73.148 E36.1842
G1 X79.355 Y72.292 E36.21423
G1 X79.717 Y71.465 E36.24426
G1 X80.152 Y70.673 E36.27431
G1 X80.654 Y69.922 E36.30436
G1 X81.221 Y69.219 E36.3344
G1 F2700 E31.3344
;MESH:7segment-diffuser.stl
G0 F6000 X88.2 Y111.728
G0 X99.41 Y125.288
G0 X102.315 Y159.631
G0 X102.315 Y160.714
G0 X98.572 Y165.434
G0 X100.547 Y168.72
;TYPE:WALL-INNER
G1 F2700 E36.3344
G1 F1200 X98.34 Y165.409 E36.46674
G1 X102.551 Y161.296 E36.66253
G1 X132.895 Y161.296 E37.67177
G1 X137.074 Y165.45 E37.86775
G1 X134.894 Y168.72 E37.99847
G1 X100.547 Y168.72 E39.14085
G0 F6000 X100.333 Y169.12
G1 F1200 X97.823 Y165.355 E39.29135
G1 X102.388 Y160.896 E39.5036
G1 X133.06 Y160.896 E40.52375
G1 X137.59 Y165.398 E40.73617
G1 X135.108 Y169.12 E40.88497
G1 X100.333 Y169.12 E42.04159
G0 F6000 X100.119 Y169.52
;TYPE:WALL-OUTER
G1 F1200 X97.306 Y165.301 E42.21024
G1 X102.226 Y160.496 E42.43898
G1 X133.225 Y160.496 E43.47001
G1 X138.106 Y165.346 E43.69887
G1 X135.322 Y169.52 E43.86574
G1 X100.119 Y169.52 E45.0366
G0 F6000 X100.371 Y169.104
G0 X100.755 Y168.33
;TYPE:SKIN
G1 F1200 X98.843 Y165.462 E45.15124
G1 X102.711 Y161.686 E45.33103
G1 X132.733 Y161.686 E46.32957
G1 X136.572 Y165.501 E46.50958
G1 X134.686 Y168.33 E46.62266
G1 X100.755 Y168.33 E47.75121
G0 F6000 X101.418 Y168.169
G1 F1200 X99.684 Y166.435 E47.83278
G0 F6000 X99.318 Y166.678
G0 X98.572 Y165.434
G0 X98.87 Y165.047
G0 X99.175 Y165.361
G1 F1200 X101.983 Y168.169 E47.96486
G0 F6000 X102.549 Y168.169
G1 F1200 X99.461 Y165.081 E48.11011
G0 F6000 X99.748 Y164.801
G1 F1200 X103.115 Y168.169 E48.2685
G0 F6000 X103.68 Y168.169
G1 F1200 X100.034 Y164.522 E48.44002
G0 F6000 X100.32 Y164.243
G1 F1200 X104.246 Y168.169 E48.62469
G0 F6000 X104.812 Y168.169
G1 F1200 X100.607 Y163.963 E48.8225
G0 F6000 X100.893 Y163.684
G1 F1200 X105.378 Y168.169 E49.03346
G0 F6000 X105.943 Y168.169
G1 F1200 X101.179 Y163.404 E49.25757
G0 F6000 X101.465 Y163.125
G1 F1200 X106.509 Y168.169 E49.49483
G0 F6000 X107.075 Y168.169
G1 F1200 X101.751 Y162.845 E49.74525
G0 F6000 X102.038 Y162.566
G1 F1200 X107.64 Y168.169 E50.00877
G0 F6000 X108.206 Y168.169
G1 F1200 X102.324 Y162.287 E50.28545
G0 F6000 X102.611 Y162.008
G1 F1200 X108.772 Y168.169 E50.57524
G0 F6000 X109.337 Y168.169
G1 F1200 X103.014 Y161.845 E50.87268
G0 F6000 X103.579 Y161.845
G1 F1200 X109.903 Y168.169 E51.17014
G0 F6000 X110.469 Y168.169
G1 F1200 X104.145 Y161.845 E51.4676
G0 F6000 X104.711 Y161.845
G1 F1200 X111.034 Y168.169 E51.76504
G0 F6000 X111.6 Y168.169
G1 F1200 X105.276 Y161.845 E52.0625
G0 F6000 X105.842 Y161.845
G1 F1200 X112.166 Y168.169 E52.35996
G0 F6000 X112.731 Y168.169
G1 F1200 X106.408 Y161.845 E52.6574
G0 F6000 X106.973 Y161.845
G1 F1200 X113.297 Y168.169 E52.95486
G0 F6000 X113.863 Y168.169
G1 F1200 X107.539 Y161.845 E53.25232
G0 F6000 X108.105 Y161.845
G1 F1200 X114.428 Y168.169 E53.54976
G0 F6000 X114.994 Y168.169
G1 F1200 X108.67 Y161.845 E53.84722
G0 F6000 X109.236 Y161.845
G1 F1200 X115.56 Y168.169 E54.14469
G0 F6000 X116.126 Y168.169
G1 F1200 X109.802 Y161.845 E54.44215
G0 F6000 X110.368 Y161.845
G1 F1200 X116.691 Y168.169 E54.73958
G0 F6000 X117.257 Y168.169
G1 F1200 X110.933 Y161.845 E55.03705
G0 F6000 X111.499 Y161.845
G1 F1200 X117.823 Y168.169 E55.33451
G0 F6000 X118.388 Y168.169
