;FLAVOR:Marlin
;TIME:7332
;Filament used: 5.02912m
;Layer height: 0.2
;MINX:39.2
;MINY:31.45
;MINZ:0.2
;MAXX:195.8
;MAXY:203.55
;MAXZ:5
;Generated with Cura_SteamEngine 4.5.0
M140 S50
M105
M190 S50
M104 S200
M105
M109 S200
M82 ;absolute extrusion mode
; Ender 3 Custom Start G-code
G92 E0 ; Reset Extruder
G28 ; Home all axes
G1 Z2.0 F3000 ; Move Z Axis up little to prevent scratching of Heat Bed
G1 X0.1 Y20 Z0.3 F5000.0 ; Move to start position
G1 X0.1 Y200.0 Z0.3 F1500.0 E15 ; Draw the first line
G1 X0.4 Y200.0 Z0.3 F5000.0 ; Move to side a little
G1 X0.4 Y20 Z0.3 F1500.0 E30 ; Draw the second line
G92 E0 ; Reset Extruder
G1 Z2.0 F3000 ; Move Z Axis up little to prevent scratching of Heat Bed
G1 X5 Y20 Z0.3 F5000.0 ; Move over to prevent blob squish
G92 E0
G92 E0
G1 F2700 E-5
;LAYER_COUNT:25
;LAYER:0
M107
G0 F6000 X48.549 Y66.951 Z0.2
;TYPE:SKIRT
G1 F2700 E0
G1 F1200 X49.024 Y66.64 E0.01888
G1 X49.321 Y66.456 E0.0305
G1 X49.614 Y66.281 E0.04186
G1 X106.222 Y33.598 E2.21592
G1 X106.894 Y33.211 E2.24171
G1 X107.524 Y32.859 E2.26571
G1 X108.361 Y32.437 E2.29689
G1 X109.232 Y32.088 E2.3281
G1 X110.129 Y31.814 E2.35929
G1 X111.046 Y31.618 E2.39048
G1 X111.976 Y31.5 E2.42166
G1 X112.51 Y31.469 E2.43945
G1 X112.858 Y31.457 E2.45104
G1 X113.237 Y31.45 E2.46364
G1 X121.561 Y31.451 E2.7405
G1 X122.259 Y31.461 E2.76372
G1 X123.195 Y31.515 E2.7949
G1 X124.123 Y31.647 E2.82608
G1 X125.037 Y31.859 E2.85728
G1 X125.929 Y32.148 E2.88847
G1 X126.794 Y32.511 E2.91967
G1 X127.24 Y32.734 E2.93626
G1 X127.539 Y32.892 E2.9475
G1 X127.9 Y33.092 E2.96123
G1 X184.527 Y65.786 E5.13603
G1 X185.2 Y66.176 E5.1619
G1 X185.782 Y66.522 E5.18442
G1 X186.567 Y67.035 E5.21561
G1 X187.306 Y67.613 E5.24681
G1 X187.992 Y68.252 E5.27799
G1 X188.622 Y68.947 E5.30919
G1 X189.19 Y69.694 E5.3404
G1 X189.574 Y70.286 E5.36387
G1 X190.245 Y71.399 E5.4071
G1 X194.025 Y77.948 E5.6586
G1 X194.382 Y78.584 E5.68286
G1 X194.806 Y79.42 E5.71403
G1 X195.157 Y80.29 E5.74524
G1 X195.433 Y81.187 E5.77645
G1 X195.631 Y82.103 E5.80762
G1 X195.75 Y83.033 E5.83881
G1 X195.786 Y83.666 E5.85989
G1 X195.8 Y84.332 E5.88205
G1 X195.8 Y150.326 E8.07702
G1 X195.799 Y150.484 E8.08227
G1 X195.789 Y151.182 E8.10549
G1 X195.735 Y152.118 E8.13667
G1 X195.603 Y153.046 E8.16785
G1 X195.391 Y153.96 E8.19906
G1 X195.102 Y154.852 E8.23024
G1 X194.739 Y155.717 E8.26144
G1 X194.528 Y156.14 E8.27717
G1 X194.383 Y156.416 E8.28754
G1 X194.172 Y156.799 E8.30208
G1 X190.005 Y164.016 E8.57926
G1 X189.629 Y164.646 E8.60366
G1 X189.114 Y165.431 E8.63489
G1 X188.535 Y166.168 E8.66606
G1 X187.894 Y166.853 E8.69726
G1 X187.198 Y167.482 E8.72846
G1 X186.451 Y168.049 E8.75965
G1 X185.962 Y168.369 E8.77909
G1 X185.664 Y168.553 E8.79074
G1 X185.385 Y168.719 E8.80154
G1 X128.784 Y201.398 E10.97533
G1 X128.105 Y201.79 E11.00141
G1 X127.473 Y202.143 E11.02549
G1 X126.635 Y202.565 E11.05669
G1 X125.765 Y202.914 E11.08787
G1 X124.868 Y203.187 E11.11906
G1 X123.951 Y203.384 E11.15025
G1 X123.02 Y203.501 E11.18146
G1 X122.459 Y203.533 E11.20015
G1 X122.113 Y203.544 E11.21167
G1 X121.763 Y203.55 E11.22331
G1 X113.439 Y203.549 E11.50017
G1 X112.741 Y203.539 E11.52338
G1 X111.805 Y203.485 E11.55457
G1 X110.877 Y203.353 E11.58574
G1 X109.963 Y203.141 E11.61695
G1 X109.071 Y202.852 E11.64814
G1 X108.206 Y202.489 E11.67934
G1 X107.748 Y202.259 E11.69638
G1 X107.448 Y202.1 E11.70768
G1 X107.099 Y201.907 E11.72094
G1 X50.473 Y169.214 E13.89569
G1 X49.8 Y168.824 E13.92156
G1 X49.218 Y168.478 E13.94408
G1 X48.433 Y167.965 E13.97527
G1 X47.694 Y167.387 E14.00647
G1 X47.008 Y166.748 E14.03766
G1 X46.378 Y166.053 E14.06886
G1 X45.81 Y165.306 E14.10007
G1 X45.427 Y164.717 E14.12343
G1 X44.748 Y163.59 E14.1672
G1 X40.967 Y157.04 E14.41874
G1 X40.613 Y156.408 E14.44284
G1 X40.19 Y155.571 E14.47403
G1 X39.84 Y154.7 E14.50525
G1 X39.565 Y153.804 E14.53642
G1 X39.368 Y152.887 E14.56762
G1 X39.249 Y151.957 E14.5988
G1 X39.214 Y151.334 E14.61955
G1 X39.2 Y150.668 E14.64171
G1 X39.2 Y84.674 E16.83668
G1 X39.201 Y84.516 E16.84194
G1 X39.211 Y83.818 E16.86515
G1 X39.265 Y82.882 E16.89634
G1 X39.397 Y81.954 E16.92751
G1 X39.609 Y81.04 E16.95872
G1 X39.898 Y80.148 E16.98991
G1 X40.465 Y78.873 E17.03632
G1 X40.609 Y78.598 E17.04664
G1 X40.827 Y78.202 E17.06168
G1 X44.995 Y70.984 E17.3389
G1 X45.371 Y70.354 E17.3633
G1 X45.886 Y69.569 E17.39453
G1 X46.465 Y68.832 E17.4257
G1 X47.106 Y68.147 E17.4569
G1 X47.802 Y67.518 E17.4881
G1 X48.549 Y66.951 E17.5193
G0 F6000 X48.847 Y67.232
G1 F1200 X49.235 Y66.98 E17.53468
G1 X49.814 Y66.627 E17.55724
G1 X106.422 Y33.944 E19.7313
G1 X107.089 Y33.56 E19.7569
G1 X107.719 Y33.208 E19.7809
G1 X108.541 Y32.795 E19.8115
G1 X109.396 Y32.454 E19.84212
G1 X110.278 Y32.189 E19.87275
G1 X111.179 Y32.001 E19.90336
G1 X112.524 Y31.868 E19.94831
G1 X112.872 Y31.856 E19.95989
G1 X113.237 Y31.85 E19.97204
G1 X121.555 Y31.851 E20.24869
G1 X122.253 Y31.861 E20.27191
G1 X123.172 Y31.914 E20.30253
G1 X124.083 Y32.047 E20.33315
G1 X124.979 Y32.258 E20.36377
G1 X125.853 Y32.546 E20.39437
G1 X127.053 Y33.088 E20.43817
G1 X127.352 Y33.246 E20.44941
G1 X127.7 Y33.438 E20.46263
G1 X184.327 Y66.132 E22.63743
G1 X184.996 Y66.52 E22.66315
G1 X185.578 Y66.866 E22.68567
G1 X186.348 Y67.37 E22.71628
G1 X187.071 Y67.939 E22.74688
G1 X187.743 Y68.569 E22.77752
G1 X188.357 Y69.255 E22.80814
G1 X188.909 Y69.992 E22.83876
G1 X189.232 Y70.493 E22.85859
G1 X189.899 Y71.599 E22.90155
G1 X193.676 Y78.144 E23.15288
G1 X194.033 Y78.78 E23.17714
G1 X194.449 Y79.601 E23.20775
G1 X194.791 Y80.456 E23.23838
G1 X195.058 Y81.337 E23.269
G1 X195.248 Y82.238 E23.29963
G1 X195.359 Y83.152 E23.33025
G1 X195.386 Y83.677 E23.34773
G1 X195.4 Y84.332 E23.36952
G1 X195.4 Y150.326 E25.56449
G1 X195.399 Y150.478 E25.56955
G1 X195.389 Y151.176 E25.59277
G1 X195.336 Y152.095 E25.62338
G1 X195.203 Y153.006 E25.654
G1 X194.992 Y153.902 E25.68462
G1 X194.704 Y154.776 E25.71523
G1 X194.174 Y155.954 E25.75819
G1 X194.029 Y156.23 E25.76856
G1 X193.825 Y156.599 E25.78258
G1 X189.661 Y163.811 E26.05957
G1 X189.285 Y164.441 E26.08397
G1 X188.779 Y165.211 E26.11461
G1 X188.209 Y165.933 E26.14521
G1 X187.578 Y166.604 E26.17585
G1 X186.891 Y167.217 E26.20647
G1 X186.153 Y167.768 E26.2371
G1 X185.752 Y168.028 E26.253
G1 X185.185 Y168.373 E26.27507
G1 X128.584 Y201.052 E28.44887
G1 X127.91 Y201.44 E28.47473
G1 X127.278 Y201.793 E28.49881
G1 X126.455 Y202.207 E28.52945
G1 X125.6 Y202.548 E28.56007
G1 X124.718 Y202.813 E28.5907
G1 X123.817 Y203 E28.62131
G1 X122.446 Y203.134 E28.66712
G1 X122.1 Y203.145 E28.67864
G1 X121.763 Y203.15 E28.68985
G1 X113.445 Y203.149 E28.9665
G1 X112.747 Y203.139 E28.98972
G1 X111.828 Y203.086 E29.02034
G1 X110.917 Y202.953 E29.05096
G1 X110.021 Y202.742 E29.08158
G1 X109.147 Y202.454 E29.11218
G1 X107.935 Y201.906 E29.15642
G1 X107.635 Y201.747 E29.16772
G1 X107.299 Y201.561 E29.18049
G1 X50.673 Y168.868 E31.35524
G1 X50.004 Y168.48 E31.38096
G1 X49.422 Y168.134 E31.40348
G1 X48.652 Y167.63 E31.43409
G1 X47.929 Y167.061 E31.46469
G1 X47.257 Y166.431 E31.49533
G1 X46.643 Y165.745 E31.52595
G1 X46.091 Y165.008 E31.55657
G1 X45.769 Y164.509 E31.57633
G1 X45.094 Y163.39 E31.61979
G1 X41.316 Y156.844 E31.87117
G1 X40.962 Y156.212 E31.89527
G1 X40.547 Y155.39 E31.92589
G1 X40.206 Y154.535 E31.95651
G1 X39.939 Y153.654 E31.98713
G1 X39.751 Y152.753 E32.01774
G1 X39.641 Y151.839 E32.04836
G1 X39.614 Y151.323 E32.06554
G1 X39.6 Y150.668 E32.08733
G1 X39.6 Y84.674 E34.2823
G1 X39.601 Y84.522 E34.28736
G1 X39.611 Y83.824 E34.31058
G1 X39.664 Y82.905 E34.34119
G1 X39.797 Y81.994 E34.37181
G1 X40.008 Y81.098 E34.40243
G1 X40.296 Y80.224 E34.43304
G1 X40.82 Y79.059 E34.47553
G1 X40.964 Y78.784 E34.48585
G1 X41.174 Y78.402 E34.50035
G1 X45.339 Y71.189 E34.77738
G1 X45.715 Y70.559 E34.80178
G1 X46.221 Y69.789 E34.83242
G1 X46.791 Y69.067 E34.86302
G1 X47.422 Y68.396 E34.89365
G1 X48.109 Y67.783 E34.92428
G1 X48.847 Y67.232 E34.95491
G0 F6000 X49.445 Y67.32
G1 F1200 X49.742 Y67.136 E34.96653
G1 X50.014 Y66.974 E34.97706
G1 X106.623 Y34.291 E37.15115
G1 X107.284 Y33.91 E37.17653
G1 X107.914 Y33.558 E37.20053
G1 X108.721 Y33.152 E37.23058
G1 X109.561 Y32.82 E37.26062
G1 X110.427 Y32.564 E37.29066
G1 X111.312 Y32.385 E37.32069
G1 X112.537 Y32.268 E37.36162
G1 X112.885 Y32.256 E37.3732
G1 X113.237 Y32.25 E37.38491
G1 X121.549 Y32.251 E37.66137
G1 X122.247 Y32.261 E37.68458
G1 X123.149 Y32.314 E37.71464
G1 X124.042 Y32.446 E37.74466
G1 X124.92 Y32.657 E37.77469
G1 X125.776 Y32.945 E37.80473
G1 X126.867 Y33.442 E37.84461
G1 X127.166 Y33.6 E37.85585
G1 X127.5 Y33.785 E37.86855
G1 X184.127 Y66.479 E40.04335
G1 X184.791 Y66.863 E40.06886
G1 X185.373 Y67.209 E40.09138
G1 X186.128 Y67.705 E40.12143
G1 X186.837 Y68.265 E40.15148
G1 X187.493 Y68.886 E40.18152
G1 X188.091 Y69.562 E40.21154
G1 X188.628 Y70.289 E40.2416
G1 X188.89 Y70.7 E40.25781
G1 X189.552 Y71.8 E40.30051
G1 X193.328 Y78.339 E40.55166
G1 X193.685 Y78.975 E40.57592
G1 X194.091 Y79.782 E40.60596
G1 X194.425 Y80.621 E40.636
G1 X194.683 Y81.486 E40.66602
G1 X194.864 Y82.371 E40.69606
G1 X194.986 Y83.688 E40.74005
G1 X195 Y84.332 E40.76148
G1 X195 Y150.326 E42.95645
G1 X194.999 Y150.472 E42.9613
G1 X194.989 Y151.17 E42.98452
G1 X194.936 Y152.072 E43.01458
G1 X194.804 Y152.965 E43.0446
G1 X194.593 Y153.843 E43.07463
G1 X194.305 Y154.699 E43.10467
G1 X193.82 Y155.768 E43.14372
G1 X193.675 Y156.044 E43.15408
G1 X193.479 Y156.399 E43.16757
G1 X189.318 Y163.606 E43.44436
G1 X188.942 Y164.236 E43.46876
G1 X188.445 Y164.991 E43.49883
G1 X187.883 Y165.698 E43.52887
G1 X187.262 Y166.353 E43.55889
G1 X186.584 Y166.95 E43.58893
G1 X185.542 Y167.688 E43.6314
G1 X185.244 Y167.872 E43.64305
G1 X184.985 Y168.026 E43.65307
G1 X128.384 Y200.705 E45.82687
G1 X127.715 Y201.091 E45.85256
G1 X127.083 Y201.444 E45.87664
G1 X126.276 Y201.849 E45.90667
G1 X125.436 Y202.181 E45.93671
G1 X124.57 Y202.438 E45.96675
G1 X123.685 Y202.617 E45.99678
G1 X122.433 Y202.734 E46.03861
G1 X122.087 Y202.745 E46.05012
G1 X121.763 Y202.75 E46.0609
G1 X113.451 Y202.749 E46.33736
G1 X112.753 Y202.739 E46.36057
G1 X111.851 Y202.686 E46.39063
G1 X110.958 Y202.554 E46.42065
G1 X110.08 Y202.343 E46.45069
G1 X109.224 Y202.055 E46.48072
G1 X108.122 Y201.552 E46.52101
G1 X107.822 Y201.393 E46.53231
G1 X107.499 Y201.214 E46.54459
G1 X50.873 Y168.521 E48.71934
G1 X50.209 Y168.137 E48.74485
G1 X49.627 Y167.791 E48.76737
G1 X48.872 Y167.295 E48.79742
G1 X48.163 Y166.735 E48.82747
G1 X47.507 Y166.114 E48.85751
G1 X46.909 Y165.438 E48.88753
G1 X46.372 Y164.711 E48.91759
G1 X46.112 Y164.302 E48.93371
G1 X45.441 Y163.19 E48.97691
G1 X41.665 Y156.649 E49.22811
G1 X41.311 Y156.017 E49.2522
G1 X40.905 Y155.21 E49.28225
G1 X40.572 Y154.37 E49.3123
G1 X40.314 Y153.505 E49.34233
G1 X40.134 Y152.62 E49.37236
G1 X40.014 Y151.312 E49.41605
G1 X40 Y150.668 E49.43747
G1 X40 Y84.674 E51.63244
G1 X40.001 Y84.528 E51.6373
G1 X40.011 Y83.83 E51.66052
G1 X40.064 Y82.928 E51.69057
G1 X40.196 Y82.035 E51.72059
G1 X40.407 Y81.157 E51.75063
G1 X40.695 Y80.301 E51.78067
G1 X41.174 Y79.244 E51.81926
G1 X41.318 Y78.969 E51.82959
G1 X41.52 Y78.602 E51.84352
G1 X45.682 Y71.394 E52.12036
G1 X46.058 Y70.764 E52.14476
G1 X46.555 Y70.009 E52.17482
G1 X47.117 Y69.302 E52.20486
G1 X47.738 Y68.647 E52.23488
G1 X48.416 Y68.05 E52.26493
G1 X49.445 Y67.32 E52.30689
G1 F2700 E47.30689
;MESH:Hexa_Leaf_Cover.stl
G0 F6000 X54.759 Y75.246
G0 X55.696 Y76.869
G0 X51.372 Y84.279
G0 X51.372 Y150.721
G0 X55.668 Y158.16
G0 X113.202 Y191.378
G0 X121.843 Y191.55
;TYPE:WALL-INNER
G1 F2700 E52.30689
G1 F1200 X113.155 Y191.55 E52.59586
G1 X56.473 Y158.824 E54.77277
G1 X55.542 Y158.286 E54.80853
G1 X51.2 Y150.768 E55.09729
G1 X51.2 Y84.232 E57.31028
G1 X55.542 Y76.715 E57.59901
G1 X112.227 Y43.987 E59.77604
G1 X113.157 Y43.45 E59.81176
G1 X121.845 Y43.45 E60.10072
G1 X178.527 Y76.176 E62.27763
G1 X179.458 Y76.714 E62.3134
G1 X183.8 Y84.232 E62.60216
G1 X183.8 Y150.768 E64.81515
G1 X179.458 Y158.285 E65.10388
G1 X122.773 Y191.013 E67.28091
G1 X121.843 Y191.55 E67.31663
G0 F6000 X121.95 Y191.95
G1 F1200 X113.049 Y191.95 E67.61268
G1 X56.273 Y159.17 E69.79319
G1 X55.249 Y158.578 E69.83253
G1 X50.855 Y150.968 E70.12481
G1 X50.8 Y150.874 E70.12843
G1 X50.8 Y84.126 E72.34848
G1 X55.249 Y76.422 E72.64437
G1 X112.027 Y43.641 E74.82496
G1 X113.05 Y43.05 E74.86426
G1 X121.951 Y43.05 E75.1603
G1 X178.727 Y75.83 E77.34082
G1 X179.751 Y76.422 E77.38016
G1 X184.145 Y84.032 E77.67243
G1 X184.2 Y84.126 E77.67606
G1 X184.2 Y150.874 E79.8961
G1 X179.751 Y158.578 E80.192
G1 X122.973 Y191.359 E82.37259
G1 X121.95 Y191.95 E82.41188
G0 F6000 X122.057 Y192.35
;TYPE:WALL-OUTER
G1 F1200 X112.943 Y192.35 E82.71502
G1 X56.073 Y159.516 E84.89914
G1 X54.956 Y158.871 E84.94204
G1 X50.4 Y150.98 E85.2451
G1 X50.4 Y84.02 E87.4722
G1 X54.956 Y76.129 E87.77526
G1 X111.827 Y43.295 E89.95941
G1 X112.943 Y42.65 E90.00228
G1 X122.057 Y42.65 E90.30541
G1 X178.927 Y75.484 E92.48953
G1 X180.044 Y76.129 E92.53243
G1 X184.6 Y84.02 E92.83549
G1 X184.6 Y150.98 E95.06259
G1 X180.044 Y158.871 E95.36565
G1 X123.173 Y191.705 E97.5498
G1 X122.057 Y192.35 E97.59268
G0 F6000 X121.943 Y191.926
G0 X121.738 Y191.16
;TYPE:SKIN
G1 F1200 X113.26 Y191.16 E97.87466
G1 X56.668 Y158.486 E100.04811
G1 X55.827 Y158.001 E100.0804
G1 X51.59 Y150.663 E100.36223
G1 X51.59 Y84.337 E102.56824
G1 X55.827 Y77 E102.85003
G1 X112.422 Y44.325 E105.02359
G1 X113.262 Y43.84 E105.05585
G1 X121.74 Y43.84 E105.33783
G1 X178.332 Y76.514 E107.51129
G1 X179.173 Y76.999 E107.54358
G1 X183.41 Y84.337 E107.8254
G1 X183.41 Y150.663 E110.03141
G1 X179.173 Y158 E110.31321
G1 X122.578 Y190.675 E112.48677
G1 X121.738 Y191.16 E112.51903
G1 F2700 E107.51903
G0 F6000 X121.877 Y191.402
G0 X113.202 Y191.378
G0 X55.997 Y158.421
G0 X56.218 Y158.041
G1 F2700 E112.51903
G1 F1200 X55.785 Y157.608 E112.5394
G0 F6000 X55.405 Y157.827
G0 X54.632 Y156.488
G0 X55.012 Y156.269
G1 F1200 X57.557 Y158.814 E112.6591
G0 F6000 X57.336 Y159.194
G0 X58.673 Y159.966
G0 X58.894 Y159.586
G1 F1200 X54.238 Y154.93 E112.87811
G0 F6000 X53.858 Y155.149
G0 X53.085 Y153.811
G0 X53.465 Y153.592
G1 F1200 X60.233 Y160.359 E113.19643
G0 F6000 X60.012 Y160.739
G0 X61.351 Y161.512
G0 X61.572 Y161.132
G1 F1200 X52.692 Y152.253 E113.6141
G0 F6000 X52.312 Y152.472
G0 X51.539 Y151.133
G0 X51.919 Y150.914
G1 F1200 X62.91 Y161.905 E114.13108
G0 F6000 X62.689 Y162.285
G0 X64.028 Y163.058
G0 X64.249 Y162.678
G1 F1200 X51.749 Y150.178 E114.71904
G0 F6000 X51.749 Y149.613
G1 F1200 X65.587 Y163.451 E115.36994
G0 F6000 X65.367 Y163.831
G0 X66.704 Y164.603
G0 X66.925 Y164.223
G1 F1200 X51.749 Y149.047 E116.08377
G0 F6000 X51.749 Y148.481
G1 F1200 X68.264 Y164.996 E116.86058
G0 F6000 X68.043 Y165.376
G0 X69.382 Y166.149
G0 X69.602 Y165.769
G1 F1200 X51.749 Y147.916 E117.70033
G0 F6000 X51.749 Y147.35
G1 F1200 X70.941 Y166.542 E118.60307
G0 F6000 X70.721 Y166.922
G0 X72.058 Y167.694
G0 X72.279 Y167.314
G1 F1200 X51.749 Y146.784 E119.56874
G0 F6000 X51.749 Y146.219
G1 F1200 X73.617 Y168.087 E120.59734
G0 F6000 X73.397 Y168.467
G0 X74.735 Y169.24
G0 X74.956 Y168.859
G1 F1200 X51.749 Y145.653 E121.6889
G0 F6000 X51.749 Y145.087
G1 F1200 X76.294 Y169.632 E122.84342
G0 F6000 X76.073 Y170.012
G0 X77.412 Y170.785
G0 X77.633 Y170.405
G1 F1200 X51.749 Y144.522 E124.0609
G0 F6000 X51.749 Y143.956
G1 F1200 X78.971 Y171.178 E125.34134
G0 F6000 X78.75 Y171.558
G0 X80.089 Y172.331
G0 X80.31 Y171.951
G1 F1200 X51.749 Y143.39 E126.68477
G0 F6000 X51.749 Y142.824
G1 F1200 X81.648 Y172.723 E128.09112
G0 F6000 X81.427 Y173.103
G0 X82.765 Y173.876
G0 X82.986 Y173.496
G1 F1200 X51.749 Y142.259 E129.56042
G0 F6000 X51.749 Y141.693
G1 F1200 X84.325 Y174.269 E131.09269
G0 F6000 X84.104 Y174.649
G0 X85.443 Y175.422
G0 X85.663 Y175.042
G1 F1200 X51.749 Y141.127 E132.68792
G0 F6000 X51.749 Y140.562
G1 F1200 X87.002 Y175.815 E134.34612
G0 F6000 X86.782 Y176.195
G0 X88.119 Y176.967
G0 X88.34 Y176.587
G1 F1200 X51.749 Y139.996 E136.06725
G0 F6000 X51.749 Y139.43
G1 F1200 X89.678 Y177.36 E137.85133
G0 F6000 X89.458 Y177.74
G0 X90.796 Y178.513
G0 X91.017 Y178.132
G1 F1200 X51.749 Y138.865 E139.69836
G0 F6000 X51.749 Y138.299
G1 F1200 X92.355 Y178.905 E141.60834
