;FLAVOR:Marlin
;TIME:1222
;Filament used: 1.25517m
;Layer height: 0.28
;MINX:84.299
;MINY:91.237
;MINZ:0.28
;MAXX:150.682
;MAXY:143.763
;MAXZ:14.84
;Generated with Cura_SteamEngine 4.5.0
M140 S50
M105
M190 S50
M104 S200
M105
M109 S200
M82 ;absolute extrusion mode
; Ender 3 Custom Start G-code
G92 E0 ; Reset Extruder
G28 ; Home all axes
G1 Z2.0 F3000 ; Move Z Axis up little to prevent scratching of Heat Bed
G1 X0.1 Y20 Z0.3 F5000.0 ; Move to start position
G1 X0.1 Y200.0 Z0.3 F1500.0 E15 ; Draw the first line
G1 X0.4 Y200.0 Z0.3 F5000.0 ; Move to side a little
G1 X0.4 Y20 Z0.3 F1500.0 E30 ; Draw the second line
G92 E0 ; Reset Extruder
G1 Z2.0 F3000 ; Move Z Axis up little to prevent scratching of Heat Bed
G1 X5 Y20 Z0.3 F5000.0 ; Move over to prevent blob squish
G92 E0
G92 E0
G1 F2700 E-5
;LAYER_COUNT:53
;LAYER:0
M107
M204 S2000
M205 X20 Y20
G0 F3600 X87.507 Y94.492 Z0.28
M204 S1500
M205 X10 Y10
;TYPE:SKIRT
G1 F2700 E0
G1 F1200 X88.196 Y93.855 E0.04369
G1 X88.936 Y93.28 E0.08733
G1 X89.723 Y92.77 E0.131
G1 X90.551 Y92.328 E0.1747
G1 X91.413 Y91.959 E0.21836
G1 X92.303 Y91.665 E0.26201
G1 X93.216 Y91.447 E0.30572
G1 X94.143 Y91.308 E0.34936
G1 X95 Y91.25 E0.38936
G1 X95.629 Y91.237 E0.41866
G1 X106.656 Y91.238 E0.93212
G1 X107.354 Y91.248 E0.96462
G1 X107.967 Y91.274 E0.99319
G1 X108.686 Y91.326 E1.02676
G1 X110.266 Y91.461 E1.1006
G1 X112.792 Y91.605 E1.21841
G1 X115.277 Y91.676 E1.33417
G1 X117.864 Y91.676 E1.45463
G1 X119.22 Y91.647 E1.51779
G1 X120.475 Y91.614 E1.57625
G1 X131.509 Y91.615 E2.09004
G1 X132.21 Y91.625 E2.12268
G1 X133.146 Y91.678 E2.16634
G1 X134.075 Y91.811 E2.21003
G1 X134.988 Y92.023 E2.25368
G1 X135.881 Y92.311 E2.29737
G1 X136.745 Y92.675 E2.34103
G1 X137.576 Y93.111 E2.38472
G1 X138.366 Y93.616 E2.42838
G1 X139.11 Y94.186 E2.47202
G1 X139.803 Y94.818 E2.5157
G1 X140.44 Y95.507 E2.55939
G1 X141.016 Y96.247 E2.60306
G1 X141.527 Y97.034 E2.64675
G1 X141.968 Y97.861 E2.69039
G1 X142.254 Y98.507 E2.72329
G1 X143.185 Y100.815 E2.83917
G1 X144.191 Y103.12 E2.95628
G1 X145.27 Y105.412 E3.07424
G1 X146.402 Y107.655 E3.19123
G1 X147.596 Y109.861 E3.30803
G1 X149.149 Y112.531 E3.45186
G1 X149.526 Y113.216 E3.48827
G1 X149.909 Y114.072 E3.53193
G1 X150.219 Y114.958 E3.57564
G1 X150.452 Y115.866 E3.61929
G1 X150.607 Y116.791 E3.66297
G1 X150.682 Y117.726 E3.70664
G1 X150.678 Y118.664 E3.75032
G1 X150.593 Y119.598 E3.79399
G1 X150.43 Y120.521 E3.83764
G1 X150.188 Y121.427 E3.8813
G1 X149.87 Y122.31 E3.925
G1 X149.478 Y123.162 E3.96867
G1 X149.162 Y123.735 E3.99914
G1 X148.985 Y124.034 E4.01532
G1 X147.706 Y126.28 E4.13567
G1 X146.531 Y128.483 E4.25193
G1 X145.411 Y130.735 E4.36905
G1 X144.362 Y133.006 E4.48553
G1 X143.025 Y136.162 E4.64513
G1 X142.75 Y136.847 E4.6795
G1 X142.363 Y137.702 E4.7232
G1 X141.906 Y138.52 E4.76683
G1 X141.38 Y139.297 E4.81053
G1 X140.79 Y140.026 E4.8542
G1 X140.14 Y140.702 E4.89786
G1 X139.434 Y141.32 E4.94155
G1 X138.679 Y141.876 E4.98521
G1 X137.879 Y142.365 E5.02887
G1 X137.04 Y142.785 E5.07256
G1 X136.169 Y143.131 E5.1162
G1 X135.271 Y143.402 E5.15988
G1 X134.353 Y143.596 E5.20357
G1 X133.116 Y143.731 E5.26151
G1 X132.79 Y143.748 E5.27671
G1 X132.217 Y143.763 E5.3034
G1 X120.915 Y143.762 E5.82967
G1 X120.218 Y143.752 E5.86213
G1 X119.601 Y143.726 E5.89088
G1 X118.841 Y143.671 E5.92637
G1 X117.295 Y143.54 E5.99861
G1 X114.78 Y143.4 E6.1159
G1 X112.256 Y143.33 E6.23348
G1 X109.683 Y143.332 E6.35329
G1 X108.441 Y143.359 E6.41113
G1 X107.356 Y143.386 E6.46167
G1 X96.061 Y143.385 E6.98761
G1 X95.363 Y143.375 E7.02012
G1 X94.427 Y143.321 E7.06377
G1 X93.499 Y143.189 E7.10742
G1 X92.585 Y142.977 E7.15111
G1 X91.693 Y142.688 E7.19477
G1 X90.828 Y142.325 E7.23845
G1 X89.998 Y141.889 E7.28211
G1 X89.207 Y141.384 E7.32581
G1 X88.463 Y140.813 E7.36948
G1 X87.77 Y140.181 E7.41315
G1 X87.133 Y139.493 E7.45681
G1 X86.558 Y138.752 E7.50048
G1 X86.047 Y137.966 E7.54414
G1 X85.605 Y137.138 E7.58784
G1 X85.236 Y136.276 E7.6315
G1 X84.941 Y135.386 E7.67516
G1 X84.723 Y134.474 E7.71883
G1 X84.583 Y133.546 E7.76253
G1 X84.525 Y132.674 E7.80322
G1 X84.512 Y132.044 E7.83256
G1 X84.512 Y123.436 E8.23339
G1 X84.492 Y121.568 E8.32037
G1 X84.311 Y112.861 E8.72589
G1 X84.299 Y111.665 E8.78159
G1 X84.3 Y102.763 E9.1961
G1 X84.31 Y102.084 E9.22772
G1 X84.364 Y101.148 E9.27138
G1 X84.497 Y100.219 E9.31508
G1 X84.709 Y99.306 E9.35872
G1 X84.998 Y98.413 E9.40243
G1 X85.362 Y97.549 E9.44608
G1 X85.798 Y96.719 E9.48974
G1 X86.304 Y95.929 E9.53342
G1 X86.875 Y95.185 E9.5771
G1 X87.507 Y94.492 E9.62077
M204 S2000
M205 X20 Y20
G0 F3600 X87.899 Y94.667
M204 S1500
M205 X10 Y10
G1 F1200 X88.584 Y94.052 E9.66363
G1 X89.321 Y93.5 E9.70651
G1 X90.102 Y93.013 E9.74937
G1 X90.923 Y92.596 E9.79225
G1 X91.777 Y92.252 E9.83512
G1 X92.657 Y91.983 E9.87796
G1 X93.558 Y91.792 E9.92085
G1 X94.472 Y91.679 E9.96373
G1 X95.011 Y91.65 E9.98887
G1 X95.629 Y91.637 E10.01765
G1 X106.65 Y91.638 E10.53084
G1 X107.348 Y91.648 E10.56334
G1 X107.939 Y91.673 E10.59089
G1 X108.652 Y91.724 E10.62417
G1 X110.245 Y91.86 E10.69862
G1 X112.757 Y92.003 E10.81578
G1 X115.301 Y92.076 E10.93428
G1 X117.872 Y92.076 E11.054
G1 X119.243 Y92.046 E11.11786
G1 X120.475 Y92.014 E11.17524
G1 X131.503 Y92.015 E11.68875
G1 X132.204 Y92.025 E11.7214
G1 X133.123 Y92.078 E11.76426
G1 X134.034 Y92.211 E11.80713
G1 X134.93 Y92.422 E11.84999
G1 X135.805 Y92.71 E11.89289
G1 X136.651 Y93.073 E11.93575
G1 X137.462 Y93.508 E11.97861
G1 X138.233 Y94.012 E12.0215
G1 X138.957 Y94.581 E12.06437
G1 X139.629 Y95.21 E12.10723
G1 X140.244 Y95.895 E12.1501
G1 X140.797 Y96.631 E12.19297
G1 X141.284 Y97.413 E12.23586
G1 X141.701 Y98.233 E12.2787
G1 X141.883 Y98.657 E12.30019
G1 X142.819 Y100.976 E12.41663
G1 X143.826 Y103.285 E12.53393
G1 X144.908 Y105.584 E12.65224
G1 X146.051 Y107.847 E12.7703
G1 X147.242 Y110.048 E12.88683
G1 X148.803 Y112.732 E13.03141
G1 X149.176 Y113.411 E13.06748
G1 X149.55 Y114.252 E13.11034
G1 X149.851 Y115.122 E13.1532
G1 X150.074 Y116.015 E13.19606
G1 X150.22 Y116.924 E13.23893
G1 X150.286 Y117.842 E13.28179
G1 X150.272 Y118.763 E13.32468
G1 X150.178 Y119.679 E13.36756
G1 X150.005 Y120.583 E13.41041
G1 X149.754 Y121.469 E13.45329
G1 X149.428 Y122.33 E13.49616
G1 X148.817 Y123.532 E13.55895
G1 X148.664 Y123.79 E13.57292
G1 X147.348 Y126.101 E13.69675
G1 X146.177 Y128.296 E13.81259
G1 X145.048 Y130.568 E13.93073
G1 X144 Y132.836 E14.04707
G1 X142.654 Y136.015 E14.20782
G1 X142.379 Y136.698 E14.2421
G1 X141.999 Y137.537 E14.28499
G1 X141.547 Y138.339 E14.32785
G1 X141.028 Y139.099 E14.37071
G1 X140.445 Y139.811 E14.41356
G1 X139.802 Y140.471 E14.45646
G1 X139.104 Y141.071 E14.49932
G1 X138.357 Y141.609 E14.54219
G1 X137.566 Y142.08 E14.58506
G1 X136.737 Y142.481 E14.62794
G1 X135.877 Y142.808 E14.67078
G1 X134.991 Y143.059 E14.71366
G1 X134.087 Y143.233 E14.75653
G1 X133.095 Y143.332 E14.80295
G1 X132.769 Y143.349 E14.81815
G1 X132.217 Y143.363 E14.84386
G1 X120.921 Y143.362 E15.36985
G1 X120.224 Y143.352 E15.40231
G1 X119.629 Y143.327 E15.43004
G1 X118.875 Y143.272 E15.46524
G1 X117.318 Y143.14 E15.538
G1 X114.813 Y143 E15.65483
G1 X112.267 Y142.93 E15.77342
G1 X109.723 Y142.932 E15.89188
G1 X107.356 Y142.986 E16.00213
G1 X96.067 Y142.985 E16.52779
G1 X95.369 Y142.975 E16.5603
G1 X94.45 Y142.922 E16.60316
G1 X93.539 Y142.789 E16.64603
G1 X92.643 Y142.578 E16.68889
G1 X91.769 Y142.29 E16.73174
G1 X90.922 Y141.927 E16.77465
G1 X90.111 Y141.492 E16.8175
G1 X89.341 Y140.988 E16.86036
G1 X88.617 Y140.419 E16.90323
G1 X87.945 Y139.789 E16.94613
G1 X87.33 Y139.104 E16.98899
G1 X86.777 Y138.368 E17.03186
G1 X86.29 Y137.587 E17.07472
G1 X85.873 Y136.766 E17.11759
G1 X85.528 Y135.912 E17.16048
G1 X85.259 Y135.032 E17.20333
G1 X85.067 Y134.131 E17.24623
G1 X84.954 Y133.218 E17.28906
G1 X84.925 Y132.663 E17.31494
G1 X84.912 Y132.044 E17.34377
G1 X84.912 Y123.436 E17.7446
G1 X84.892 Y121.56 E17.83196
G1 X84.711 Y112.857 E18.23729
G1 X84.699 Y111.665 E18.2928
G1 X84.7 Y102.769 E18.70703
G1 X84.71 Y102.09 E18.73865
G1 X84.764 Y101.171 E18.78152
G1 X84.897 Y100.26 E18.82439
G1 X85.108 Y99.364 E18.86725
G1 X85.397 Y98.49 E18.91012
G1 X85.76 Y97.644 E18.95298
G1 X86.196 Y96.832 E18.9959
G1 X86.7 Y96.062 E19.03875
G1 X87.269 Y95.338 E19.08163
G1 X87.899 Y94.667 E19.12449
M204 S2000
M205 X20 Y20
G0 F3600 X88.29 Y94.845
M204 S1500
M205 X10 Y10
G1 F1200 X88.972 Y94.253 E19.16654
G1 X89.704 Y93.724 E19.20859
G1 X90.479 Y93.262 E19.25061
G1 X91.293 Y92.87 E19.29268
G1 X92.138 Y92.551 E19.33473
G1 X93.008 Y92.309 E19.37678
G1 X93.896 Y92.144 E19.41884
G1 X95.022 Y92.05 E19.47145
G1 X95.629 Y92.037 E19.49972
G1 X106.644 Y92.038 E20.01263
G1 X107.342 Y92.048 E20.04513
G1 X107.911 Y92.072 E20.07165
G1 X108.618 Y92.123 E20.10466
G1 X110.222 Y92.26 E20.17962
G1 X112.725 Y92.403 E20.29636
G1 X115.289 Y92.476 E20.4158
G1 X117.835 Y92.476 E20.53435
G1 X119.263 Y92.445 E20.60086
G1 X120.475 Y92.414 E20.65731
G1 X131.497 Y92.415 E21.17054
G1 X132.198 Y92.425 E21.20319
G1 X133.1 Y92.478 E21.24526
G1 X133.993 Y92.61 E21.2873
G1 X134.872 Y92.821 E21.32939
G1 X135.728 Y93.109 E21.37144
G1 X136.555 Y93.471 E21.41348
G1 X137.347 Y93.905 E21.45553
G1 X138.097 Y94.408 E21.49758
G1 X138.8 Y94.975 E21.53964
G1 X139.45 Y95.601 E21.58166
G1 X140.043 Y96.283 E21.62374
G1 X140.572 Y97.015 E21.6658
G1 X141.035 Y97.79 E21.70783
G1 X141.512 Y98.807 E21.76014
G1 X142.452 Y101.137 E21.87713
G1 X143.455 Y103.436 E21.99392
G1 X144.547 Y105.756 E22.11332
G1 X145.699 Y108.039 E22.2324
G1 X146.882 Y110.223 E22.34805
G1 X148.458 Y112.933 E22.49403
G1 X148.825 Y113.605 E22.52968
G1 X149.191 Y114.43 E22.57171
G1 X149.482 Y115.285 E22.61376
G1 X149.696 Y116.163 E22.65584
G1 X149.832 Y117.056 E22.6979
G1 X149.888 Y117.957 E22.73994
G1 X149.865 Y118.86 E22.782
G1 X149.761 Y119.757 E22.82405
G1 X149.579 Y120.641 E22.86607
G1 X149.319 Y121.506 E22.90813
G1 X148.984 Y122.345 E22.9502
G1 X148.473 Y123.329 E23.00183
G1 X148.288 Y123.643 E23.0188
G1 X147.021 Y125.866 E23.13794
G1 X145.81 Y128.136 E23.25774
G1 X144.691 Y130.388 E23.37484
G1 X143.621 Y132.703 E23.49359
G1 X142.3 Y135.821 E23.65127
G1 X142.008 Y136.549 E23.6878
G1 X141.634 Y137.371 E23.72985
G1 X141.189 Y138.157 E23.77191
G1 X140.677 Y138.901 E23.81396
G1 X140.101 Y139.596 E23.85599
G1 X139.465 Y140.238 E23.89807
G1 X138.775 Y140.821 E23.94013
G1 X138.037 Y141.34 E23.98215
G1 X137.255 Y141.792 E24.0242
G1 X136.436 Y142.174 E24.06628
G1 X135.587 Y142.481 E24.10832
G1 X134.714 Y142.712 E24.15037
G1 X133.824 Y142.865 E24.19242
G1 X133.074 Y142.932 E24.22748
G1 X132.748 Y142.949 E24.24268
G1 X132.217 Y142.963 E24.26742
G1 X120.927 Y142.962 E24.79313
G1 X120.23 Y142.952 E24.82559
G1 X119.658 Y142.928 E24.85225
G1 X118.909 Y142.874 E24.88721
G1 X117.34 Y142.742 E24.96053
G1 X114.81 Y142.6 E25.07852
G1 X112.278 Y142.53 E25.19647
G1 X109.713 Y142.532 E25.31591
G1 X108.397 Y142.56 E25.3772
G1 X107.356 Y142.586 E25.42569
G1 X96.073 Y142.585 E25.95107
G1 X95.375 Y142.575 E25.98357
G1 X94.473 Y142.522 E26.02565
G1 X93.58 Y142.39 E26.06768
G1 X92.702 Y142.179 E26.10973
G1 X91.846 Y141.891 E26.15178
G1 X91.019 Y141.529 E26.19382
G1 X90.227 Y141.094 E26.2359
G1 X89.476 Y140.592 E26.27796
G1 X88.773 Y140.025 E26.32001
G1 X88.123 Y139.398 E26.36207
G1 X87.531 Y138.716 E26.40412
G1 X87.001 Y137.985 E26.44616
G1 X86.539 Y137.209 E26.48821
G1 X86.146 Y136.396 E26.53026
G1 X85.828 Y135.551 E26.5723
G1 X85.585 Y134.681 E26.61436
G1 X85.42 Y133.793 E26.65642
G1 X85.325 Y132.652 E26.70973
G1 X85.312 Y132.044 E26.73805
G1 X85.312 Y123.436 E27.13888
G1 X85.292 Y121.552 E27.22661
G1 X85.111 Y112.853 E27.63176
G1 X85.099 Y111.665 E27.68708
G1 X85.1 Y102.775 E28.10103
G1 X85.11 Y102.096 E28.13266
G1 X85.163 Y101.194 E28.17473
G1 X85.296 Y100.301 E28.21677
G1 X85.507 Y99.423 E28.25882
G1 X85.796 Y98.567 E28.30089
G1 X86.158 Y97.74 E28.34292
G1 X86.593 Y96.948 E28.385
G1 X87.095 Y96.198 E28.42702
G1 X87.663 Y95.495 E28.46911
G1 X88.29 Y94.845 E28.51116
M204 S2000
M205 X20 Y20
G1 F2700 E23.51116
;MESH:7segment-blink.stl
G0 F3600 X119.488 Y103.028
G0 X120.567 Y103.028
G0 X131.277 Y103.396
G0 X131.251 Y110.174
G0 X129.843 Y106.885
G0 X126.456 Y105.476
G0 X123.078 Y106.874
G0 X122.17 Y109.091
G0 X122.014 Y110.24
G0 X122.16 Y111.37
G0 X122.596 Y112.444
G0 X123.361 Y113.431
G0 X124.235 Y114.101
G0 X125.102 Y114.459
G0 X126.456 Y114.858
M204 S1000
M205 X10 Y10
;TYPE:WALL-INNER
G1 F2700 E28.51116
G1 F1800 X127.648 Y114.701 E28.56714
G1 X128.759 Y114.241 E28.62313
G1 X129.713 Y113.509 E28.67913
G1 X130.425 Y112.581 E28.73359
G1 X130.891 Y111.477 E28.78939
G1 X131.056 Y110.288 E28.84529
G1 X130.907 Y109.075 E28.90219
G1 X130.451 Y107.962 E28.9582
G1 X129.721 Y107.006 E29.01421
G1 X128.759 Y106.265 E29.07075
G1 X127.648 Y105.804 E29.12676
G1 X126.456 Y105.648 E29.18274
G1 X125.265 Y105.804 E29.23867
G1 X124.153 Y106.265 E29.29472
G1 X123.2 Y106.996 E29.35065
G1 X122.475 Y107.941 E29.40611
G1 X122.014 Y109.049 E29.46199
G1 X121.853 Y110.24 E29.51795
G1 X122.003 Y111.411 E29.57293
G1 X122.454 Y112.524 E29.62885
G1 X123.156 Y113.452 E29.68303
G1 X123.255 Y113.551 E29.68955
G1 X124.153 Y114.241 E29.74228
G1 X125.265 Y114.701 E29.79832
G1 X126.456 Y114.858 E29.85425
M204 S2000
M205 X20 Y20
G0 F3600 X126.456 Y114.455
M204 S1000
M205 X10 Y10
;TYPE:WALL-OUTER
G1 F1800 X127.544 Y114.311 E29.90536
G1 X128.557 Y113.892 E29.9564
G1 X129.428 Y113.224 E30.00751
G1 X130.076 Y112.378 E30.05714
G1 X130.502 Y111.37 E30.10809
G1 X130.653 Y110.285 E30.1591
G1 X130.517 Y109.177 E30.21108
G1 X130.101 Y108.163 E30.26212
G1 X129.435 Y107.291 E30.31321
G1 X128.557 Y106.614 E30.36483
G1 X127.544 Y106.194 E30.4159
G1 X126.456 Y106.051 E30.46699
G1 X125.369 Y106.194 E30.51805
G1 X124.355 Y106.614 E30.56915
G1 X123.485 Y107.281 E30.6202
G1 X122.824 Y108.143 E30.67078
G1 X122.403 Y109.154 E30.72177
G1 X122.256 Y110.241 E30.77285
G1 X122.393 Y111.309 E30.82299
G1 X122.805 Y112.325 E30.87404
G1 X123.458 Y113.189 E30.92447
G1 X123.519 Y113.25 E30.92849
G1 X124.355 Y113.892 E30.97757
G1 X125.369 Y114.311 E31.02866
G1 X126.456 Y114.455 E31.07971
M204 S2000
M205 X20 Y20
G0 F3600 X126.456 Y114.895
G1 F2700 E26.07971
G0 F3600 X126.456 Y115.07
G0 X126.456 Y113.582
G0 X126.456 Y121.998
G0 X126.456 Y120.53
G0 X124.235 Y121.479
G0 X123.314 Y122.185
G0 X122.629 Y123.081
G0 X122.179 Y124.146
G0 X122.017 Y125.293
G0 X122.16 Y126.444
G0 X122.603 Y127.536
G0 X123.307 Y128.459
G0 X124.234 Y129.175
G0 X125.102 Y129.534
G0 X126.456 Y129.932
M204 S1000
M205 X10 Y10
;TYPE:WALL-INNER
G1 F2700 E31.07971
G1 F1800 X127.648 Y129.776 E31.13569
G1 X128.759 Y129.315 E31.1917
G1 X129.713 Y128.584 E31.24766
G1 X130.438 Y127.639 E31.30313
G1 X130.899 Y126.53 E31.35905
G1 X131.059 Y125.34 E31.41496
G1 X130.91 Y124.169 E31.46993
G1 X130.459 Y123.056 E31.52584
G1 X129.757 Y122.128 E31.58003
G1 X129.658 Y122.029 E31.58655
G1 X128.759 Y121.339 E31.63932
G1 X127.648 Y120.878 E31.69533
G1 X126.456 Y120.722 E31.7513
G1 X125.265 Y120.878 E31.80724
G1 X124.153 Y121.339 E31.86329
G1 X123.2 Y122.071 E31.91924
G1 X122.488 Y122.999 E31.97371
G1 X122.022 Y124.103 E32.02951
G1 X121.856 Y125.292 E32.08541
G1 X122.002 Y126.484 E32.14133
G1 X122.461 Y127.617 E32.19825
G1 X123.192 Y128.574 E32.25433
G1 X124.153 Y129.315 E32.31083
G1 X125.265 Y129.776 E32.36688
G1 X126.456 Y129.932 E32.42282
M204 S2000
M205 X20 Y20
G0 F3600 X126.456 Y129.529
M204 S1000
M205 X10 Y10
;TYPE:WALL-OUTER
G1 F1800 X127.544 Y129.386 E32.47391
G1 X128.557 Y128.966 E32.52498
G1 X129.428 Y128.299 E32.57606
G1 X130.089 Y127.437 E32.62664
G1 X130.51 Y126.425 E32.67768
G1 X130.656 Y125.339 E32.7287
G1 X130.52 Y124.271 E32.77883
G1 X130.108 Y123.255 E32.82989
G1 X129.455 Y122.391 E32.88031
G1 X129.394 Y122.33 E32.88433
G1 X128.557 Y121.688 E32.93345
G1 X127.544 Y121.268 E32.98451
G1 X126.456 Y121.125 E33.03561
G1 X125.369 Y121.268 E33.08666
G1 X124.355 Y121.688 E33.13777
G1 X123.485 Y122.356 E33.18884
G1 X122.837 Y123.202 E33.23846
G1 X122.411 Y124.21 E33.28942
G1 X122.259 Y125.295 E33.34044
G1 X122.393 Y126.383 E33.39148
G1 X122.812 Y127.417 E33.44343
G1 X123.478 Y128.289 E33.49452
G1 X124.355 Y128.966 E33.54611
G1 X125.369 Y129.386 E33.59722
G1 X126.456 Y129.529 E33.64827
M204 S2000
