;FLAVOR:Marlin
;TIME:2813
;Filament used: 2.83591m
;Layer height: 0.28
;MINX:73.813
;MINY:48.992
;MINZ:0.28
;MAXX:161.187
;MAXY:186.008
;MAXZ:1.4
;Generated with Cura_SteamEngine 4.5.0
M140 S50
M105
M190 S50
M104 S200
M105
M109 S200
M82 ;absolute extrusion mode
; Ender 3 Custom Start G-code
G92 E0 ; Reset Extruder
G28 ; Home all axes
G1 Z2.0 F3000 ; Move Z Axis up little to prevent scratching of Heat Bed
G1 X0.1 Y20 Z0.3 F5000.0 ; Move to start position
G1 X0.1 Y200.0 Z0.3 F1500.0 E15 ; Draw the first line
G1 X0.4 Y200.0 Z0.3 F5000.0 ; Move to side a little
G1 X0.4 Y20 Z0.3 F1500.0 E30 ; Draw the second line
G92 E0 ; Reset Extruder
G1 Z2.0 F3000 ; Move Z Axis up little to prevent scratching of Heat Bed
G1 X5 Y20 Z0.3 F5000.0 ; Move over to prevent blob squish
G92 E0
G92 E0
G1 F2700 E-5
;LAYER_COUNT:5
;LAYER:0
M107
M204 S2000
M205 X20 Y20
G0 F3600 X76.386 Y65.364 Z0.28
M204 S1500
M205 X10 Y10
;TYPE:SKIRT
G1 F2700 E0
G1 F1200 X77.018 Y64.671 E0.04367
G1 X77.641 Y64.09 E0.08334
G1 X78.54 Y63.318 E0.13852
G1 X79.119 Y62.836 E0.1736
G1 X81.04 Y61.143 E0.29283
G1 X82.873 Y59.433 E0.40955
G1 X84.667 Y57.661 E0.52697
G1 X86.375 Y55.875 E0.64204
G1 X88.479 Y53.536 E0.78854
G1 X89.13 Y52.787 E0.83475
G1 X89.775 Y52.106 E0.87842
G1 X90.476 Y51.483 E0.92209
G1 X91.227 Y50.921 E0.96577
G1 X92.023 Y50.426 E1.00942
G1 X92.859 Y50 E1.05311
G1 X93.728 Y49.647 E1.09678
G1 X94.624 Y49.369 E1.14046
G1 X95.54 Y49.169 E1.18412
G1 X96.47 Y49.047 E1.2278
G1 X97.176 Y49.008 E1.26072
G1 X97.991 Y48.992 E1.29868
G1 X136.879 Y48.993 E3.10947
G1 X137.58 Y49.003 E3.14211
G1 X138.516 Y49.056 E3.18577
G1 X139.445 Y49.189 E3.22947
G1 X140.358 Y49.401 E3.27311
G1 X141.251 Y49.689 E3.3168
G1 X142.115 Y50.053 E3.36046
G1 X142.946 Y50.489 E3.40415
G1 X143.736 Y50.994 E3.44781
G1 X144.48 Y51.564 E3.49146
G1 X145.173 Y52.196 E3.53513
G1 X145.681 Y52.735 E3.56962
G1 X147.558 Y54.868 E3.70192
G1 X149.274 Y56.708 E3.81907
G1 X151.032 Y58.488 E3.93557
G1 X152.867 Y60.245 E4.05387
G1 X154.719 Y61.922 E4.1702
G1 X156.945 Y63.811 E4.30615
G1 X157.4 Y64.219 E4.3346
G1 X157.538 Y64.35 E4.34346
G1 X158.19 Y65.024 E4.38713
G1 X158.783 Y65.751 E4.43082
G1 X159.311 Y66.526 E4.47448
G1 X159.771 Y67.344 E4.51818
G1 X160.16 Y68.197 E4.56184
G1 X160.475 Y69.08 E4.60549
G1 X160.713 Y69.988 E4.6492
G1 X160.873 Y70.912 E4.69286
G1 X160.964 Y72.147 E4.75053
G1 X160.974 Y72.875 E4.78443
G1 X160.973 Y111.761 E6.59512
G1 X160.935 Y114.127 E6.70531
G1 X160.937 Y116.658 E6.82316
G1 X161.009 Y119.177 E6.94051
G1 X161.102 Y120.923 E7.02192
G1 X161.155 Y121.759 E7.06093
G1 X161.175 Y122.252 E7.0839
G1 X161.187 Y122.998 E7.11864
G1 X161.186 Y161.912 E8.93064
G1 X161.176 Y162.61 E8.96315
G1 X161.122 Y163.546 E9.0068
G1 X160.99 Y164.474 E9.05045
G1 X160.778 Y165.388 E9.09414
G1 X160.489 Y166.28 E9.1378
G1 X160.126 Y167.145 E9.18148
G1 X159.69 Y167.975 E9.22514
G1 X159.185 Y168.766 E9.26884
G1 X158.614 Y169.51 E9.31251
G1 X157.982 Y170.203 E9.35618
G1 X157.367 Y170.777 E9.39535
G1 X156.832 Y171.239 E9.42827
G1 X154.838 Y172.997 E9.55205
G1 X153.027 Y174.685 E9.66733
G1 X151.235 Y176.455 E9.78461
G1 X149.485 Y178.283 E9.90245
G1 X147.811 Y180.135 E10.01869
G1 X146.633 Y181.521 E10.10339
G1 X146.025 Y182.219 E10.1465
G1 X145.379 Y182.899 E10.19017
G1 X144.678 Y183.522 E10.23384
G1 X143.926 Y184.083 E10.27753
G1 X143.129 Y184.578 E10.32121
G1 X142.293 Y185.003 E10.36488
G1 X141.424 Y185.355 E10.40854
G1 X140.528 Y185.632 E10.45221
G1 X139.612 Y185.832 E10.49587
G1 X138.682 Y185.953 E10.53954
G1 X138.005 Y185.991 E10.57111
G1 X137.17 Y186.008 E10.61
G1 X98.281 Y186.007 E12.42083
G1 X97.583 Y185.997 E12.45334
G1 X96.647 Y185.943 E12.497
G1 X95.719 Y185.811 E12.54064
G1 X94.805 Y185.599 E12.58433
G1 X93.913 Y185.31 E12.62799
G1 X93.048 Y184.947 E12.67167
G1 X92.218 Y184.511 E12.71533
G1 X91.427 Y184.006 E12.75903
G1 X90.683 Y183.435 E12.8027
G1 X89.99 Y182.803 E12.84637
G1 X89.42 Y182.193 E12.88525
G1 X88.908 Y181.597 E12.92183
G1 X87.936 Y180.429 E12.99259
G1 X86.228 Y178.489 E13.11295
G1 X84.55 Y176.688 E13.22757
G1 X82.774 Y174.89 E13.34525
G1 X80.971 Y173.163 E13.4615
G1 X78.585 Y171.018 E13.6109
G1 X78.107 Y170.603 E13.64037
G1 X77.425 Y169.959 E13.68405
G1 X76.801 Y169.259 E13.72772
G1 X76.239 Y168.509 E13.77136
G1 X75.742 Y167.713 E13.81505
G1 X75.316 Y166.878 E13.8587
G1 X74.961 Y166.009 E13.90241
G1 X74.683 Y165.114 E13.94605
G1 X74.481 Y164.198 E13.98973
G1 X74.358 Y163.268 E14.03341
G1 X74.318 Y162.571 E14.06592
G1 X74.301 Y161.738 E14.10472
G1 X74.301 Y122.294 E15.9414
G1 X74.292 Y120.911 E16.00579
G1 X74.219 Y118.395 E16.123
G1 X74.074 Y115.86 E16.24123
G1 X73.939 Y114.192 E16.31916
G1 X73.867 Y113.391 E16.3566
G1 X73.831 Y112.817 E16.38338
G1 X73.815 Y112.286 E16.40812
G1 X73.813 Y112.053 E16.41897
G1 X73.814 Y72.962 E18.23921
G1 X73.824 Y72.264 E18.27172
G1 X73.878 Y71.328 E18.31537
G1 X74.01 Y70.4 E18.35902
G1 X74.222 Y69.486 E18.40271
G1 X74.511 Y68.594 E18.44637
G1 X74.874 Y67.729 E18.49005
G1 X75.31 Y66.899 E18.53371
G1 X75.815 Y66.108 E18.57741
G1 X76.386 Y65.364 E18.62108
M204 S2000
M205 X20 Y20
G0 F3600 X76.78 Y65.518
M204 S1500
M205 X10 Y10
G1 F1200 X77.41 Y64.846 E18.66397
G1 X77.902 Y64.393 E18.69511
G1 X78.795 Y63.625 E18.74995
G1 X79.411 Y63.112 E18.78728
G1 X81.314 Y61.435 E18.90539
G1 X83.145 Y59.728 E19.02195
G1 X84.937 Y57.957 E19.13927
G1 X86.695 Y56.119 E19.2577
G1 X88.766 Y53.816 E19.40192
G1 X89.432 Y53.05 E19.44919
G1 X90.066 Y52.382 E19.49207
G1 X90.755 Y51.772 E19.53492
G1 X91.495 Y51.223 E19.57783
G1 X92.279 Y50.741 E19.62068
G1 X93.102 Y50.329 E19.66353
G1 X93.958 Y49.99 E19.70641
G1 X94.84 Y49.726 E19.74928
G1 X95.742 Y49.54 E19.79216
G1 X96.656 Y49.433 E19.83501
G1 X97.185 Y49.408 E19.85967
G1 X97.991 Y49.392 E19.89721
G1 X136.873 Y49.393 E21.70772
G1 X137.574 Y49.403 E21.74036
G1 X138.493 Y49.456 E21.78323
G1 X139.404 Y49.589 E21.8261
G1 X140.3 Y49.8 E21.86896
G1 X141.175 Y50.088 E21.91185
G1 X142.021 Y50.451 E21.95472
G1 X142.832 Y50.886 E21.99757
G1 X143.603 Y51.39 E22.04046
G1 X144.327 Y51.959 E22.08334
G1 X144.999 Y52.588 E22.1262
G1 X145.38 Y52.999 E22.1523
G1 X147.264 Y55.14 E22.28509
G1 X148.979 Y56.98 E22.40222
G1 X150.753 Y58.775 E22.51973
G1 X152.585 Y60.53 E22.63786
G1 X154.441 Y62.21 E22.75443
G1 X156.686 Y64.115 E22.89153
G1 X157.125 Y64.509 E22.919
G1 X157.263 Y64.64 E22.92786
G1 X157.902 Y65.302 E22.9707
G1 X158.482 Y66.018 E23.01361
G1 X158.997 Y66.781 E23.05647
G1 X159.445 Y67.585 E23.09933
G1 X159.821 Y68.426 E23.14223
G1 X160.122 Y69.296 E23.18509
G1 X160.347 Y70.188 E23.22793
G1 X160.493 Y71.097 E23.2708
G1 X160.564 Y72.154 E23.32013
G1 X160.574 Y72.875 E23.35371
G1 X160.573 Y111.756 E25.16417
G1 X160.535 Y114.116 E25.27407
G1 X160.537 Y116.634 E25.39132
G1 X160.611 Y119.209 E25.51127
G1 X160.703 Y120.948 E25.59236
G1 X160.756 Y121.784 E25.63137
G1 X160.775 Y122.26 E25.65355
G1 X160.787 Y122.998 E25.68792
G1 X160.786 Y161.906 E27.49964
G1 X160.776 Y162.604 E27.53214
G1 X160.723 Y163.523 E27.57501
G1 X160.59 Y164.434 E27.61788
G1 X160.379 Y165.33 E27.66074
G1 X160.091 Y166.204 E27.70359
G1 X159.728 Y167.051 E27.7465
G1 X159.293 Y167.862 E27.78935
G1 X158.789 Y168.632 E27.8322
G1 X158.22 Y169.356 E27.87508
G1 X157.59 Y170.028 E27.91797
G1 X157.106 Y170.474 E27.94862
G1 X156.519 Y170.981 E27.98474
G1 X154.603 Y172.671 E28.1037
G1 X152.721 Y174.424 E28.22346
G1 X150.966 Y176.159 E28.33838
G1 X149.166 Y178.039 E28.45957
G1 X147.522 Y179.857 E28.5737
G1 X146.331 Y181.258 E28.65933
G1 X145.723 Y181.956 E28.70243
G1 X145.089 Y182.624 E28.74531
G1 X144.399 Y183.233 E28.78817
G1 X143.659 Y183.781 E28.83105
G1 X142.874 Y184.262 E28.87391
G1 X142.05 Y184.674 E28.91681
G1 X141.194 Y185.012 E28.95967
G1 X140.312 Y185.275 E29.00252
G1 X139.41 Y185.46 E29.0454
G1 X138.495 Y185.566 E29.08829
G1 X137.995 Y185.591 E29.1116
G1 X137.17 Y185.608 E29.15002
G1 X98.287 Y185.607 E30.96058
G1 X97.589 Y185.597 E30.99308
G1 X96.67 Y185.544 E31.03595
G1 X95.759 Y185.411 E31.07882
G1 X94.863 Y185.2 E31.12168
G1 X93.989 Y184.912 E31.16453
G1 X93.142 Y184.549 E31.20744
G1 X92.331 Y184.114 E31.25029
G1 X91.561 Y183.61 E31.29314
G1 X90.837 Y183.041 E31.33602
G1 X90.165 Y182.411 E31.37891
G1 X89.723 Y181.931 E31.4093
G1 X89.215 Y181.341 E31.44555
G1 X88.227 Y180.154 E31.51746
G1 X86.553 Y178.253 E31.63541
G1 X84.81 Y176.382 E31.75448
G1 X83.052 Y174.603 E31.87094
G1 X81.233 Y172.859 E31.98828
G1 X78.891 Y170.754 E32.13491
G1 X78.369 Y170.301 E32.16709
G1 X77.7 Y169.668 E32.20998
G1 X77.089 Y168.98 E32.25282
G1 X76.54 Y168.241 E32.29569
G1 X76.057 Y167.457 E32.33857
G1 X75.644 Y166.634 E32.38145
G1 X75.304 Y165.779 E32.42429
G1 X75.04 Y164.897 E32.46716
G1 X74.852 Y163.995 E32.51007
G1 X74.744 Y163.081 E32.55292
G1 X74.718 Y162.561 E32.57716
G1 X74.701 Y161.738 E32.6155
G1 X74.701 Y122.294 E34.45217
G1 X74.692 Y120.941 E34.51518
G1 X74.617 Y118.362 E34.63532
G1 X74.471 Y115.804 E34.75462
G1 X74.33 Y114.065 E34.83586
G1 X74.266 Y113.355 E34.86906
G1 X74.23 Y112.802 E34.89486
G1 X74.213 Y112.05 E34.92989
G1 X74.214 Y72.968 E36.74971
G1 X74.224 Y72.27 E36.78221
G1 X74.277 Y71.351 E36.82508
G1 X74.41 Y70.44 E36.86795
G1 X74.621 Y69.544 E36.91081
G1 X74.909 Y68.67 E36.95366
G1 X75.272 Y67.823 E36.99657
G1 X75.707 Y67.012 E37.03942
G1 X76.211 Y66.242 E37.08227
G1 X76.78 Y65.518 E37.12515
M204 S2000
M205 X20 Y20
G0 F3600 X77.174 Y65.674
M204 S1500
M205 X10 Y10
G1 F1200 X77.801 Y65.024 E37.1672
G1 X78.163 Y64.696 E37.18995
G1 X79.051 Y63.933 E37.24447
G1 X79.648 Y63.436 E37.28064
G1 X81.568 Y61.744 E37.3998
G1 X83.433 Y60.005 E37.51854
G1 X85.242 Y58.217 E37.63698
G1 X86.967 Y56.413 E37.7532
G1 X89.083 Y54.061 E37.90052
G1 X89.734 Y53.312 E37.94673
G1 X90.356 Y52.658 E37.98875
G1 X91.034 Y52.061 E38.03082
G1 X91.761 Y51.526 E38.07285
G1 X92.534 Y51.058 E38.11493
G1 X93.344 Y50.659 E38.15697
G1 X94.187 Y50.335 E38.19902
G1 X95.055 Y50.086 E38.24107
G1 X95.942 Y49.914 E38.28314
G1 X97.194 Y49.808 E38.34165
G1 X97.991 Y49.792 E38.37877
G1 X136.867 Y49.793 E40.189
G1 X137.568 Y49.803 E40.22164
G1 X138.47 Y49.856 E40.26372
G1 X139.363 Y49.988 E40.30575
G1 X140.242 Y50.199 E40.34784
G1 X141.098 Y50.487 E40.3899
G1 X141.925 Y50.849 E40.43193
G1 X142.717 Y51.283 E40.47399
G1 X143.467 Y51.786 E40.51604
G1 X144.17 Y52.353 E40.55809
G1 X145.08 Y53.263 E40.61802
G1 X146.955 Y55.393 E40.75015
G1 X148.719 Y57.286 E40.87064
G1 X150.457 Y59.045 E40.98578
G1 X152.324 Y60.833 E41.10615
G1 X154.18 Y62.513 E41.22272
G1 X156.427 Y64.42 E41.35995
G1 X156.849 Y64.799 E41.38637
G1 X156.987 Y64.93 E41.39523
G1 X157.614 Y65.58 E41.43728
G1 X158.181 Y66.284 E41.47937
G1 X158.684 Y67.034 E41.52142
G1 X159.118 Y67.826 E41.56347
G1 X159.48 Y68.653 E41.60551
G1 X159.768 Y69.509 E41.64756
G1 X159.979 Y70.387 E41.68961
G1 X160.111 Y71.281 E41.73169
G1 X160.164 Y72.16 E41.77269
G1 X160.174 Y72.875 E41.80599
G1 X160.173 Y111.75 E43.61617
G1 X160.135 Y114.105 E43.72585
G1 X160.137 Y116.646 E43.84417
G1 X160.21 Y119.2 E43.96314
G1 X160.308 Y121.03 E44.04848
G1 X160.357 Y121.81 E44.08487
G1 X160.375 Y122.267 E44.10616
G1 X160.387 Y122.998 E44.14021
G1 X160.386 Y161.9 E45.95165
G1 X160.376 Y162.598 E45.98415
G1 X160.323 Y163.5 E46.02622
G1 X160.191 Y164.393 E46.06826
G1 X159.98 Y165.271 E46.11031
G1 X159.692 Y166.127 E46.15236
G1 X159.33 Y166.954 E46.1944
G1 X158.895 Y167.746 E46.23647
G1 X158.393 Y168.497 E46.27853
G1 X157.826 Y169.2 E46.32059
G1 X157.199 Y169.85 E46.36264
G1 X156.844 Y170.171 E46.38493
G1 X156.336 Y170.61 E46.41619
G1 X154.311 Y172.395 E46.54189
G1 X152.468 Y174.113 E46.65921
G1 X150.661 Y175.899 E46.77751
G1 X148.897 Y177.74 E46.89624
G1 X147.203 Y179.614 E47.01387
G1 X146.029 Y180.996 E47.0983
G1 X145.421 Y181.694 E47.14141
G1 X144.799 Y182.348 E47.18343
G1 X144.12 Y182.944 E47.2255
G1 X143.392 Y183.478 E47.26754
G1 X142.619 Y183.946 E47.30962
G1 X141.809 Y184.343 E47.35162
G1 X140.966 Y184.667 E47.39368
G1 X140.097 Y184.915 E47.43576
G1 X139.21 Y185.086 E47.47782
G1 X137.985 Y185.191 E47.53507
G1 X137.17 Y185.208 E47.57303
G1 X98.293 Y185.207 E49.3833
G1 X97.595 Y185.197 E49.41581
G1 X96.693 Y185.144 E49.45788
G1 X95.8 Y185.012 E49.49992
G1 X94.922 Y184.801 E49.54196
G1 X94.066 Y184.513 E49.58402
G1 X93.239 Y184.151 E49.62605
G1 X92.447 Y183.716 E49.66813
G1 X91.696 Y183.214 E49.71019
G1 X90.993 Y182.647 E49.75225
G1 X90.343 Y182.02 E49.7943
G1 X90.025 Y181.67 E49.81632
G1 X89.523 Y181.085 E49.85222
G1 X88.534 Y179.897 E49.92419
G1 X86.848 Y177.982 E50.043
G1 X85.105 Y176.111 E50.16207
G1 X83.349 Y174.333 E50.27843
G1 X81.51 Y172.571 E50.39702
G1 X79.137 Y170.438 E50.5456
G1 X78.631 Y169.999 E50.57679
G1 X77.976 Y169.378 E50.61882
G1 X77.378 Y168.701 E50.66088
G1 X76.842 Y167.973 E50.70298
G1 X76.373 Y167.202 E50.745
G1 X75.974 Y166.392 E50.78704
G1 X75.648 Y165.549 E50.82913
G1 X75.398 Y164.682 E50.87114
G1 X75.226 Y163.795 E50.91322
G1 X75.118 Y162.551 E50.97136
G1 X75.101 Y161.738 E51.00922
G1 X75.101 Y122.294 E52.8459
G1 X75.092 Y120.927 E52.90956
G1 X75.016 Y118.327 E53.03068
G1 X74.874 Y115.831 E53.14709
G1 X74.728 Y114.032 E53.23113
G1 X74.664 Y113.319 E53.26447
G1 X74.63 Y112.787 E53.28929
G1 X74.613 Y112.047 E53.32376
G1 X74.614 Y72.974 E55.14316
G1 X74.624 Y72.276 E55.17566
G1 X74.677 Y71.374 E55.21774
G1 X74.809 Y70.481 E55.25977
G1 X75.02 Y69.603 E55.30182
G1 X75.308 Y68.747 E55.34387
G1 X75.67 Y67.92 E55.38591
G1 X76.105 Y67.128 E55.42798
G1 X76.607 Y66.377 E55.47005
G1 X77.174 Y65.674 E55.5121
M204 S2000
M205 X20 Y20
G1 F2700 E50.5121
;MESH:7segment-plate.stl
G0 F3600 X84.153 Y112.765
G0 X89.067 Y116.044
G0 X90.963 Y124.072
G0 X90.96 Y124.193
G0 X91.173 Y125.796
G0 X91.437 Y126.079
G0 X101.007 Y166.603
G0 X100.629 Y165.185
G0 X101.985 Y165.528
G0 X102.574 Y165.772
G0 X103.081 Y166.16
G0 X103.469 Y166.667
G0 X103.712 Y167.254
G0 X103.797 Y167.89
G0 X103.713 Y168.52
G0 X103.469 Y169.109
G0 X103.155 Y169.519
G0 X102.027 Y170.405
M204 S1000
M205 X10 Y10
;TYPE:WALL-INNER
G1 F2700 E55.5121
G1 F1800 X102.656 Y170.144 E55.54381
G1 X103.195 Y169.73 E55.57546
G1 X103.609 Y169.191 E55.60711
G1 X103.87 Y168.563 E55.63877
G1 X103.958 Y167.89 E55.67038
G1 X103.869 Y167.211 E55.70226
G1 X103.609 Y166.585 E55.73383
G1 X103.195 Y166.046 E55.76547
G1 X102.656 Y165.632 E55.79712
G1 X102.027 Y165.371 E55.82883
G1 X101.353 Y165.283 E55.86048
G1 X100.679 Y165.371 E55.89213
G1 X100.05 Y165.632 E55.92384
G1 X99.511 Y166.046 E55.95549
G1 X99.097 Y166.585 E55.98714
G1 X98.836 Y167.214 E56.01885
G1 X98.748 Y167.888 E56.0505
G1 X98.836 Y168.562 E56.08215
G1 X99.097 Y169.191 E56.11386
G1 X99.511 Y169.73 E56.14551
G1 X100.05 Y170.144 E56.17715
G1 X100.679 Y170.405 E56.20886
G1 X101.353 Y170.493 E56.24051
G1 X102.027 Y170.405 E56.27217
M204 S2000
M205 X20 Y20
G0 F3600 X101.923 Y170.015
M204 S1000
M205 X10 Y10
;TYPE:WALL-OUTER
G1 F1800 X102.454 Y169.795 E56.29893
G1 X102.91 Y169.445 E56.3257
G1 X103.26 Y168.989 E56.35246
G1 X103.48 Y168.458 E56.37923
G1 X103.555 Y167.89 E56.4059
G1 X103.479 Y167.316 E56.43287
G1 X103.26 Y166.787 E56.45953
G1 X102.91 Y166.331 E56.48629
G1 X102.454 Y165.981 E56.51306
G1 X101.923 Y165.761 E56.53982
G1 X101.353 Y165.686 E56.56659
G1 X100.783 Y165.761 E56.59336
G1 X100.252 Y165.981 E56.62013
G1 X99.796 Y166.331 E56.64689
G1 X99.446 Y166.787 E56.67366
G1 X99.226 Y167.318 E56.70042
G1 X99.151 Y167.888 E56.72719
G1 X99.226 Y168.458 E56.75397
G1 X99.446 Y168.989 E56.78073
G1 X99.796 Y169.445 E56.8075
G1 X100.252 Y169.795 E56.83426
G1 X100.783 Y170.015 E56.86103
G1 X101.353 Y170.09 E56.8878
G1 X101.923 Y170.015 E56.91457
M204 S2000
M205 X20 Y20
G0 F3600 X102.036 Y170.44
G1 F2700 E51.91457
G0 F3600 X100.721 Y170.248
G0 X100.132 Y170.004
G0 X99.625 Y169.616
G0 X99.237 Y169.109
G0 X98.993 Y168.52
G0 X98.947 Y168.163
G0 X98.931 Y166.489
G0 X100.2 Y167.225
G0 X93.061 Y160.347
G0 X94.099 Y161.385
G0 X92.79 Y161.926
M204 S1000
M205 X10 Y10
;TYPE:WALL-INNER
G1 F2700 E56.91457
G1 F1800 X93.42 Y161.665 E56.94632
G1 X93.963 Y161.249 E56.97817
G1 X94.379 Y160.706 E57.01002
G1 X94.64 Y160.076 E57.04178
G1 X94.73 Y159.399 E57.07358
G1 X94.64 Y158.722 E57.10538
G1 X94.378 Y158.091 E57.13719
G1 X93.962 Y157.549 E57.16901
G1 X93.421 Y157.134 E57.20076
